; generated by Slic3r 1.2.9 on 2016-05-01 at 18:27:33

; external perimeters extrusion width = 0.40mm
; perimeters extrusion width = 0.67mm
; infill extrusion width = 0.67mm
; solid infill extrusion width = 0.67mm
; top infill extrusion width = 0.67mm

M107
M190 S55 ; set bed temperature
M104 S200 ; set temperature
G28 ; home all axes
G1 Z5 F5000 ; lift nozzle

M109 S200 ; wait for temperature to be reached
G21 ; set units to millimeters
G90 ; use absolute coordinates
M82 ; use absolute distances for extrusion
G92 E0
G1 Z0.200 F7800.000
G1 E-2.00000 F2400.00000
G92 E0
G1 X8.734 Y89.226 F7800.000
G1 E2.00000 F2400.00000
G1 X9.475 Y89.165 E2.02208 F1800.000
G1 X10.000 Y89.143 E2.03767
G1 X190.000 Y89.143 E7.38210
G1 X190.525 Y89.165 E7.39770
G1 X191.266 Y89.226 E7.41977 F1800.000
G1 X192.301 Y89.399 E7.45094
G1 X193.022 Y89.581 E7.47301
G1 X194.015 Y89.922 E7.50418
G1 X194.673 Y90.211 E7.52551
G1 X195.619 Y90.720 E7.55742
G1 X196.241 Y91.127 E7.57950
G1 X197.070 Y91.772 E7.61066
G1 X197.617 Y92.276 E7.63274
G1 X198.327 Y93.048 E7.66390
G1 X198.769 Y93.614 E7.68523
G1 X199.358 Y94.513 E7.71714
G1 X199.712 Y95.167 E7.73921
G1 X200.134 Y96.128 E7.77038
G1 X200.375 Y96.831 E7.79245
G1 X200.633 Y97.849 E7.82362
G1 X200.755 Y98.582 E7.84569
G1 X200.842 Y99.628 E7.87686
G1 X200.842 Y100.372 E7.89893
G1 X200.755 Y101.418 E7.93010
G1 X200.633 Y102.152 E7.95219
G1 X200.375 Y103.169 E7.98334
G1 X200.133 Y103.873 E8.00544
G1 X199.712 Y104.833 E8.03658
G1 X199.358 Y105.487 E8.05866
G1 X198.784 Y106.366 E8.08983
G1 X198.327 Y106.952 E8.11190
G1 X197.616 Y107.725 E8.14306
G1 X197.070 Y108.228 E8.16513
G1 X196.241 Y108.873 E8.19631
G1 X195.619 Y109.280 E8.21837
G1 X194.695 Y109.779 E8.24954
G1 X194.015 Y110.078 E8.27161
G1 X193.022 Y110.419 E8.30279
G1 X192.301 Y110.601 E8.32485
G1 X191.266 Y110.774 E8.35603
G1 X190.525 Y110.835 E8.37809
G1 X190.000 Y110.857 E8.39369
G1 X10.000 Y110.857 E13.73813
G1 X9.475 Y110.835 E13.75373
G1 X8.734 Y110.774 E13.77580
G1 X7.699 Y110.601 E13.80697
G1 X6.978 Y110.419 E13.82903
G1 X5.985 Y110.078 E13.86021
G1 X5.304 Y109.779 E13.88228
G1 X4.381 Y109.280 E13.91345
G1 X3.759 Y108.873 E13.93552
G1 X2.931 Y108.228 E13.96669
G1 X2.384 Y107.725 E13.98876
G1 X1.673 Y106.952 E14.01993
G1 X1.216 Y106.366 E14.04200
G1 X0.642 Y105.487 E14.07317
G1 X0.288 Y104.833 E14.09524
G1 X-0.134 Y103.872 E14.12641
G1 X-0.375 Y103.169 E14.14848
G1 X-0.633 Y102.151 E14.17965
G1 X-0.755 Y101.418 E14.20173
G1 X-0.842 Y100.372 E14.23289
G1 X-0.842 Y99.628 E14.25496
G1 X-0.755 Y98.582 E14.28613
G1 X-0.633 Y97.849 E14.30820
G1 X-0.375 Y96.831 E14.33937
G1 X-0.134 Y96.128 E14.36144
G1 X0.288 Y95.167 E14.39262
G1 X0.642 Y94.513 E14.41469
G1 X1.216 Y93.634 E14.44586
G1 X1.673 Y93.047 E14.46793
G1 X2.384 Y92.275 E14.49910
G1 X2.931 Y91.772 E14.52117
G1 X3.759 Y91.127 E14.55234
G1 X4.381 Y90.720 E14.57440
G1 X5.305 Y90.221 E14.60558
G1 X5.985 Y89.922 E14.62765
G1 X6.978 Y89.581 E14.65882
G1 X7.699 Y89.399 E14.68089
G1 X8.675 Y89.236 E14.71028
G1 E12.71028 F2400.00000
G92 E0
G1 X10.452 Y103.530 F7800.000
G1 E2.00000 F2400.00000
G1 X9.849 Y103.556 E2.01792 F1800.000
G1 X9.250 Y103.479 E2.03585
G1 X8.673 Y103.302 E2.05377
G1 X8.134 Y103.031 E2.07169
G1 X7.649 Y102.672 E2.08962
G1 X7.231 Y102.236 E2.10754
G1 X6.893 Y101.736 E2.12547
G1 X6.644 Y101.186 E2.14339
G1 X6.492 Y100.601 E2.16131
G1 X6.441 Y100.000 E2.17924
G1 X6.492 Y99.399 E2.19716
G1 X6.640 Y98.832 E2.21453
G1 X6.892 Y98.266 E2.23295
G1 X7.231 Y97.764 E2.25092
G1 X7.649 Y97.328 E2.26885
G1 X8.134 Y96.969 E2.28677
G1 X8.673 Y96.698 E2.30469
G1 X9.250 Y96.521 E2.32262
G1 X9.831 Y96.446 E2.33999 F1800.000
G1 X10.451 Y96.469 E2.35841
G1 X11.042 Y96.597 E2.37638
G1 X11.602 Y96.822 E2.39430
G1 X12.116 Y97.138 E2.41223
G1 X12.570 Y97.537 E2.43015
G1 X12.949 Y98.007 E2.44808
G1 X13.243 Y98.534 E2.46600
G1 X13.444 Y99.103 E2.48392
G1 X13.546 Y99.698 E2.50185
G1 X13.546 Y100.302 E2.51977
G1 X13.444 Y100.897 E2.53769
G1 X13.243 Y101.466 E2.55562
G1 X12.949 Y101.993 E2.57354
G1 X12.570 Y102.463 E2.59146
G1 X12.116 Y102.861 E2.60939
G1 X11.602 Y103.178 E2.62731
G1 X11.042 Y103.403 E2.64523
G1 X10.511 Y103.518 E2.66138
G1 X10.407 Y103.175 F7800.000
G1 X9.864 Y103.198 E2.67750 F1800.000
G1 X9.326 Y103.129 E2.69361
G1 X8.807 Y102.970 E2.70973
G1 X8.322 Y102.726 E2.72585
G1 X7.885 Y102.403 E2.74197
G1 X7.510 Y102.011 E2.75809
G1 X7.206 Y101.561 E2.77421
G1 X6.982 Y101.066 E2.79033
G1 X6.845 Y100.541 E2.80645
G1 X6.799 Y100.000 E2.82257
G1 X6.845 Y99.459 E2.83868
G1 X6.978 Y98.951 E2.85428
G1 X7.205 Y98.439 E2.87090
G1 X7.510 Y97.989 E2.88703
G1 X7.885 Y97.597 E2.90315
G1 X8.322 Y97.274 E2.91927
G1 X8.807 Y97.030 E2.93539
G1 X9.326 Y96.871 E2.95151
G1 X9.847 Y96.804 E2.96711 F1800.000
G1 X10.406 Y96.825 E2.98372
G1 X10.937 Y96.940 E2.99986
G1 X11.441 Y97.142 E3.01598
G1 X11.903 Y97.427 E3.03210
G1 X12.311 Y97.785 E3.04821
G1 X12.652 Y98.208 E3.06433
G1 X12.917 Y98.682 E3.08045
G1 X13.097 Y99.193 E3.09657
G1 X13.189 Y99.729 E3.11269
G1 X13.189 Y100.271 E3.12881
G1 X13.097 Y100.807 E3.14493
G1 X12.917 Y101.318 E3.16105
G1 X12.652 Y101.792 E3.17717
G1 X12.311 Y102.215 E3.19328
G1 X11.903 Y102.573 E3.20940
G1 X11.441 Y102.858 E3.22552
G1 X10.937 Y103.060 E3.24164
G1 X10.465 Y103.162 E3.25598
G1 X10.242 Y103.539 F7800.000
G1 X11.874 Y103.430 F7800.000
G1 X12.329 Y103.150 E3.27185 F1800.000
G1 X12.828 Y102.711 E3.29158
G1 X13.246 Y102.194 E3.31131
G1 X13.570 Y101.614 E3.33104
G1 X13.791 Y100.987 E3.35077
G1 X13.903 Y100.332 E3.37050
G1 X13.903 Y99.668 E3.39022
G1 X13.791 Y99.013 E3.40995
G1 X13.570 Y98.386 E3.42968
G1 X13.246 Y97.806 E3.44941
G1 X12.828 Y97.289 E3.46914
G1 X12.329 Y96.850 E3.48887
G1 X11.874 Y96.570 E3.50474
G1 X11.918 Y96.414 E3.50955
G1 X68.701 Y96.414 E5.19551
G1 X68.729 Y96.597 E5.20099
G1 X68.643 Y96.623 E5.20366
G1 X68.092 Y96.901 E5.22199
G1 X67.595 Y97.268 E5.24031
G1 X67.168 Y97.714 E5.25864
G1 X66.823 Y98.225 E5.27697
G1 X66.568 Y98.788 E5.29530
G1 X66.413 Y99.385 E5.31363
G1 X66.360 Y100.000 E5.33196
G1 X66.413 Y100.615 E5.35029
G1 X66.568 Y101.212 E5.36861
G1 X66.823 Y101.775 E5.38694
G1 X67.168 Y102.286 E5.40527
G1 X67.595 Y102.732 E5.42360
G1 X68.092 Y103.099 E5.44193
G1 X68.643 Y103.377 E5.46026
G1 X68.729 Y103.403 E5.46292
G1 X68.701 Y103.586 E5.46840
G1 X11.918 Y103.586 E7.15436
G1 X11.890 Y103.488 E7.15739
G1 X66.719 Y100.000 F7800.000
G1 X66.766 Y99.445 E7.17392 F1800.000
G1 X66.906 Y98.907 E7.19044
G1 X67.136 Y98.400 E7.20696
G1 X67.447 Y97.939 E7.22349
G1 X67.832 Y97.537 E7.24001
G1 X68.280 Y97.206 E7.25654
G1 X68.777 Y96.955 E7.27306
G1 X69.309 Y96.793 E7.28958
G1 X69.844 Y96.724 E7.30560 F1800.000
G1 X70.415 Y96.745 E7.32258
G1 X70.961 Y96.863 E7.33915
G1 X71.477 Y97.070 E7.35567
G1 X71.951 Y97.362 E7.37220
G1 X72.369 Y97.730 E7.38872
G1 X72.718 Y98.163 E7.40524
G1 X72.982 Y98.634 E7.42127
G1 X73.175 Y99.172 E7.43824
G1 X73.269 Y99.722 E7.45481
G1 X73.269 Y100.278 E7.47133
G1 X73.175 Y100.827 E7.48786
G1 X72.990 Y101.351 E7.50438
G1 X72.718 Y101.837 E7.52090
G1 X72.369 Y102.270 E7.53743
G1 X71.951 Y102.638 E7.55395
G1 X71.477 Y102.930 E7.57047
G1 X70.961 Y103.137 E7.58700
G1 X70.417 Y103.255 E7.60352
G1 X69.861 Y103.278 E7.62005
G1 X69.309 Y103.207 E7.63657
G1 X68.777 Y103.045 E7.65309
G1 X68.280 Y102.794 E7.66962
G1 X67.832 Y102.463 E7.68614
G1 X67.447 Y102.061 E7.70267
G1 X67.136 Y101.600 E7.71919
G1 X66.906 Y101.093 E7.73571
G1 X66.766 Y100.555 E7.75224
G1 X66.724 Y100.060 E7.76698
G1 X67.077 Y100.000 F7800.000
G1 X67.119 Y99.506 E7.78170 F1800.000
G1 X67.244 Y99.026 E7.79642
G1 X67.448 Y98.575 E7.81114
G1 X67.726 Y98.164 E7.82586
G1 X68.069 Y97.806 E7.84057
G1 X68.468 Y97.511 E7.85529
G1 X68.910 Y97.288 E7.87001
G1 X69.384 Y97.143 E7.88473
G1 X69.860 Y97.082 E7.89898 F1800.000
G1 X70.371 Y97.101 E7.91415
G1 X70.856 Y97.205 E7.92888
G1 X71.316 Y97.390 E7.94360
G1 X71.738 Y97.650 E7.95832
G1 X72.110 Y97.978 E7.97304
G1 X72.422 Y98.363 E7.98776
G1 X72.656 Y98.782 E8.00200
G1 X72.828 Y99.263 E8.01717
G1 X72.912 Y99.752 E8.03191
G1 X72.912 Y100.248 E8.04663
G1 X72.828 Y100.736 E8.06135
G1 X72.663 Y101.204 E8.07607
G1 X72.422 Y101.637 E8.09079
G1 X72.110 Y102.022 E8.10550
G1 X71.738 Y102.350 E8.12022
G1 X71.316 Y102.610 E8.13494
G1 X70.856 Y102.795 E8.14966
G1 X70.371 Y102.899 E8.16438
G1 X69.876 Y102.920 E8.17910
G1 X69.384 Y102.857 E8.19382
G1 X68.910 Y102.712 E8.20854
G1 X68.468 Y102.489 E8.22326
G1 X68.069 Y102.194 E8.23798
G1 X67.726 Y101.836 E8.25270
G1 X67.448 Y101.425 E8.26741
G1 X67.244 Y100.974 E8.28213
G1 X67.119 Y100.494 E8.29685
G1 X67.082 Y100.060 E8.30979
G1 X66.737 Y99.790 F7800.000
G1 E6.30979 F2400.00000
G92 E0
G1 X71.234 Y103.412 F7800.000
G1 E2.00000 F2400.00000
G1 X71.639 Y103.250 E2.01294 F1800.000
G1 X72.164 Y102.926 E2.03127
G1 X72.628 Y102.518 E2.04960
G1 X73.015 Y102.038 E2.06792
G1 X73.316 Y101.499 E2.08625
G1 X73.522 Y100.917 E2.10458
G1 X73.626 Y100.309 E2.12291
G1 X73.626 Y99.691 E2.14124
G1 X73.522 Y99.080 E2.15964
G1 X73.308 Y98.485 E2.17842
G1 X73.015 Y97.962 E2.19622
G1 X72.628 Y97.482 E2.21455
G1 X72.164 Y97.074 E2.23287
G1 X71.639 Y96.750 E2.25120
G1 X71.234 Y96.588 E2.26414
G1 X71.268 Y96.414 E2.26939
G1 X128.076 Y96.414 E3.95610
G1 X128.115 Y96.579 E3.96113
G1 X127.946 Y96.664 E3.96676
G1 X127.412 Y97.059 E3.98648
G1 X126.952 Y97.539 E4.00621
G1 X126.580 Y98.089 E4.02594
G1 X126.306 Y98.695 E4.04567
G1 X126.139 Y99.338 E4.06540
G1 X126.083 Y100.000 E4.08513
G1 X126.139 Y100.662 E4.10485
G1 X126.307 Y101.307 E4.12466
G1 X126.591 Y101.927 E4.14488
G1 X126.952 Y102.461 E4.16403
G1 X127.412 Y102.941 E4.18376
G1 X127.946 Y103.336 E4.20349
G1 X128.115 Y103.421 E4.20912
G1 X128.076 Y103.586 E4.21414
G1 X71.268 Y103.586 E5.90086
G1 X71.246 Y103.471 E5.90432
G1 X126.441 Y100.000 F7800.000
G1 X126.492 Y99.399 E5.92225 F1800.000
G1 X126.644 Y98.814 E5.94017
G1 X126.893 Y98.264 E5.95809
G1 X127.231 Y97.764 E5.97602
G1 X127.649 Y97.328 E5.99394
G1 X128.134 Y96.969 E6.01187
G1 X128.673 Y96.698 E6.02979
G1 X129.250 Y96.521 E6.04771
G1 X129.831 Y96.446 E6.06509 F1800.000
G1 X130.451 Y96.469 E6.08351
G1 X131.042 Y96.597 E6.10148
G1 X131.602 Y96.822 E6.11940
G1 X132.116 Y97.138 E6.13732
G1 X132.570 Y97.537 E6.15525
G1 X132.949 Y98.007 E6.17317
G1 X133.243 Y98.534 E6.19109
G1 X133.438 Y99.086 E6.20847
G1 X133.546 Y99.697 E6.22689
G1 X133.546 Y100.302 E6.24486
G1 X133.444 Y100.897 E6.26278
G1 X133.243 Y101.466 E6.28071
G1 X132.949 Y101.993 E6.29863
G1 X132.570 Y102.463 E6.31655
G1 X132.116 Y102.861 E6.33448
G1 X131.602 Y103.178 E6.35240
G1 X131.042 Y103.403 E6.37032
G1 X130.452 Y103.530 E6.38825
G1 X129.849 Y103.556 E6.40617
G1 X129.250 Y103.479 E6.42409
G1 X128.673 Y103.302 E6.44202
G1 X128.134 Y103.031 E6.45994
G1 X127.649 Y102.672 E6.47786
G1 X127.231 Y102.236 E6.49579
G1 X126.903 Y101.751 E6.51316
G1 X126.645 Y101.187 E6.53158
G1 X126.492 Y100.601 E6.54955
G1 X126.446 Y100.060 E6.56569
G1 X126.799 Y100.000 F7800.000
G1 X126.845 Y99.459 E6.58181 F1800.000
G1 X126.982 Y98.934 E6.59793
G1 X127.206 Y98.439 E6.61405
G1 X127.510 Y97.989 E6.63017
G1 X127.885 Y97.597 E6.64629
G1 X128.322 Y97.274 E6.66241
G1 X128.807 Y97.030 E6.67853
G1 X129.326 Y96.871 E6.69464
G1 X129.847 Y96.804 E6.71024 F1800.000
G1 X130.406 Y96.825 E6.72686
G1 X130.937 Y96.940 E6.74299
G1 X131.441 Y97.142 E6.75911
G1 X131.903 Y97.427 E6.77523
G1 X132.311 Y97.785 E6.79135
G1 X132.652 Y98.208 E6.80747
G1 X132.917 Y98.682 E6.82359
G1 X133.092 Y99.177 E6.83919
G1 X133.189 Y99.728 E6.85580
G1 X133.189 Y100.271 E6.87194
G1 X133.097 Y100.807 E6.88806
G1 X132.917 Y101.318 E6.90418
G1 X132.652 Y101.792 E6.92029
G1 X132.311 Y102.215 E6.93641
G1 X131.903 Y102.573 E6.95253
G1 X131.441 Y102.858 E6.96865
G1 X130.937 Y103.060 E6.98477
G1 X130.407 Y103.175 E7.00089
G1 X129.864 Y103.198 E7.01701
G1 X129.326 Y103.129 E7.03313
G1 X128.807 Y102.970 E7.04924
G1 X128.322 Y102.726 E7.06536
G1 X127.885 Y102.403 E7.08148
G1 X127.510 Y102.011 E7.09760
G1 X127.216 Y101.575 E7.11320
G1 X126.982 Y101.067 E7.12982
G1 X126.845 Y100.541 E7.14595
G1 X126.804 Y100.060 E7.16029
G1 X126.459 Y99.790 F7800.000
G1 E5.16029 F2400.00000
G92 E0
G1 X131.874 Y103.430 F7800.000
G1 E2.00000 F2400.00000
G1 X132.329 Y103.150 E2.01588 F1800.000
G1 X132.828 Y102.711 E2.03560
G1 X133.246 Y102.194 E2.05533
G1 X133.570 Y101.614 E2.07506
G1 X133.791 Y100.987 E2.09479
G1 X133.903 Y100.332 E2.11452
G1 X133.903 Y99.665 E2.13432
G1 X133.785 Y98.995 E2.15455
G1 X133.570 Y98.386 E2.17370
G1 X133.246 Y97.806 E2.19342
G1 X132.828 Y97.289 E2.21315
G1 X132.329 Y96.850 E2.23288
G1 X131.874 Y96.570 E2.24876
G1 X131.918 Y96.414 E2.25357
G1 X188.076 Y96.414 E3.92096
G1 X188.115 Y96.579 E3.92599
G1 X187.946 Y96.664 E3.93162
G1 X187.412 Y97.059 E3.95135
G1 X186.950 Y97.541 E3.97115
G1 X186.572 Y98.107 E3.99137
G1 X186.306 Y98.695 E4.01052
G1 X186.139 Y99.338 E4.03025
G1 X186.083 Y100.000 E4.04998
G1 X186.139 Y100.662 E4.06971
G1 X186.306 Y101.305 E4.08944
G1 X186.580 Y101.911 E4.10917
G1 X186.952 Y102.461 E4.12889
G1 X187.412 Y102.941 E4.14862
G1 X187.946 Y103.336 E4.16835
G1 X188.115 Y103.421 E4.17398
G1 X188.076 Y103.586 E4.17900
G1 X131.918 Y103.586 E5.84640
G1 X131.890 Y103.488 E5.84943
G1 X186.441 Y100.000 F7800.000
G1 X186.492 Y99.398 E5.86736 F1800.000
G1 X186.644 Y98.814 E5.88528
G1 X186.885 Y98.281 E5.90265
G1 X187.230 Y97.765 E5.92107
G1 X187.649 Y97.328 E5.93904
G1 X188.134 Y96.969 E5.95697
G1 X188.673 Y96.698 E5.97489
G1 X189.250 Y96.521 E5.99281
G1 X189.831 Y96.446 E6.01019 F1800.000
G1 X190.451 Y96.469 E6.02861
G1 X191.042 Y96.597 E6.04658
G1 X191.602 Y96.822 E6.06450
G1 X192.116 Y97.138 E6.08242
G1 X192.570 Y97.537 E6.10035
G1 X192.968 Y98.031 E6.11918
G1 X193.244 Y98.537 E6.13629
G1 X193.444 Y99.103 E6.15413
G1 X193.546 Y99.698 E6.17205
G1 X193.546 Y100.302 E6.18998
G1 X193.444 Y100.897 E6.20790
G1 X193.243 Y101.466 E6.22583
G1 X192.949 Y101.993 E6.24375
G1 X192.569 Y102.463 E6.26167
G1 X192.116 Y102.861 E6.27960
G1 X191.618 Y103.168 E6.29697
G1 X191.044 Y103.403 E6.31539
G1 X190.452 Y103.530 E6.33336
G1 X189.849 Y103.556 E6.35128
G1 X189.250 Y103.479 E6.36921
G1 X188.673 Y103.302 E6.38713
G1 X188.134 Y103.031 E6.40505
G1 X187.649 Y102.672 E6.42298
G1 X187.231 Y102.236 E6.44090
G1 X186.893 Y101.736 E6.45883
G1 X186.644 Y101.186 E6.47675
G1 X186.492 Y100.602 E6.49467
G1 X186.446 Y100.060 E6.51081
G1 X186.799 Y100.000 F7800.000
G1 X186.845 Y99.459 E6.52693 F1800.000
G1 X186.982 Y98.934 E6.54305
G1 X187.198 Y98.455 E6.55865
G1 X187.509 Y97.990 E6.57527
G1 X187.885 Y97.597 E6.59140
G1 X188.322 Y97.274 E6.60752
G1 X188.807 Y97.030 E6.62364
G1 X189.326 Y96.871 E6.63976
G1 X189.847 Y96.804 E6.65536 F1800.000
G1 X190.406 Y96.825 E6.67197
G1 X190.937 Y96.940 E6.68811
G1 X191.441 Y97.142 E6.70423
G1 X191.903 Y97.427 E6.72034
G1 X192.311 Y97.785 E6.73646
G1 X192.670 Y98.230 E6.75344
G1 X192.917 Y98.683 E6.76874
G1 X193.097 Y99.193 E6.78483
G1 X193.189 Y99.729 E6.80095
G1 X193.189 Y100.271 E6.81707
G1 X193.097 Y100.807 E6.83319
G1 X192.917 Y101.318 E6.84931
G1 X192.652 Y101.792 E6.86543
G1 X192.311 Y102.215 E6.88155
G1 X191.903 Y102.573 E6.89766
G1 X191.456 Y102.849 E6.91326
G1 X190.938 Y103.060 E6.92988
G1 X190.407 Y103.175 E6.94601
G1 X189.864 Y103.198 E6.96213
G1 X189.326 Y103.129 E6.97825
G1 X188.807 Y102.970 E6.99437
G1 X188.322 Y102.726 E7.01049
G1 X187.885 Y102.403 E7.02661
G1 X187.510 Y102.011 E7.04273
G1 X187.206 Y101.561 E7.05885
G1 X186.982 Y101.066 E7.07496
G1 X186.845 Y100.541 E7.09108
G1 X186.804 Y100.060 E7.10542
G1 X186.459 Y99.790 F7800.000
G1 X186.799 Y103.943 F7800.000
G1 X10.023 Y103.943 E12.35414 F1800.000
G1 X9.351 Y103.887 E12.37415
G1 X8.720 Y103.727 E12.39347
