; generated by Slic3r 1.2.9 on 2016-05-01 at 18:29:50

; external perimeters extrusion width = 0.40mm
; perimeters extrusion width = 0.67mm
; infill extrusion width = 0.67mm
; solid infill extrusion width = 0.67mm
; top infill extrusion width = 0.67mm

M107
M190 S55 ; set bed temperature
M104 S200 ; set temperature
G28 ; home all axes
G1 Z5 F5000 ; lift nozzle

M109 S200 ; wait for temperature to be reached
G21 ; set units to millimeters
G90 ; use absolute coordinates
M82 ; use absolute distances for extrusion
G92 E0
G1 Z0.200 F7800.000
G1 E-2.00000 F2400.00000
G92 E0
G1 X72.065 Y70.203 F7800.000
G1 E2.00000 F2400.00000
G1 X72.612 Y69.700 E2.02207 F1800.000
G1 X73.441 Y69.055 E2.05324
G1 X74.042 Y68.662 E2.07457
G1 X74.986 Y68.149 E2.10648
G1 X75.667 Y67.850 E2.12855
G1 X76.660 Y67.510 E2.15972
G1 X77.381 Y67.327 E2.18180
G1 X78.416 Y67.154 E2.21296
G1 X79.132 Y67.095 E2.23429
G1 X80.207 Y67.093 E2.26620
G1 X80.947 Y67.154 E2.28827 F1800.000
G1 X81.983 Y67.327 E2.31944
G1 X82.703 Y67.510 E2.34151
G1 X83.696 Y67.850 E2.37268
G1 X84.354 Y68.139 E2.39401
G1 X85.300 Y68.649 E2.42592
G1 X85.923 Y69.055 E2.44799
G1 X86.751 Y69.700 E2.47916
G1 X87.298 Y70.203 E2.50123
G1 X87.669 Y70.575 E2.51683
G1 X128.306 Y114.718 E4.29830
G1 X128.646 Y115.119 E4.31391
G1 X129.102 Y115.706 E4.33597
G1 X129.677 Y116.585 E4.36714
G1 X130.030 Y117.238 E4.38921
G1 X130.452 Y118.200 E4.42039
G1 X130.693 Y118.903 E4.44245
G1 X130.951 Y119.921 E4.47363
G1 X131.073 Y120.654 E4.49570
G1 X131.160 Y121.700 E4.52687
G1 X131.160 Y122.443 E4.54893
G1 X131.073 Y123.490 E4.58011
G1 X130.951 Y124.223 E4.60218
G1 X130.693 Y125.241 E4.63335
G1 X130.452 Y125.943 E4.65541
G1 X130.030 Y126.905 E4.68659
G1 X129.677 Y127.559 E4.70866
G1 X129.102 Y128.438 E4.73983
G1 X128.646 Y129.024 E4.76190
G1 X127.935 Y129.797 E4.79307
G1 X127.406 Y130.283 E4.81440
G1 X126.559 Y130.945 E4.84631
G1 X125.937 Y131.351 E4.86837
G1 X125.014 Y131.851 E4.89955
G1 X124.333 Y132.150 E4.92162
G1 X123.340 Y132.490 E4.95279
G1 X122.619 Y132.673 E4.97486
G1 X121.584 Y132.846 E5.00603
G1 X120.843 Y132.907 E5.02810
G1 X119.793 Y132.907 E5.05927
G1 X119.053 Y132.846 E5.08134
G1 X118.017 Y132.673 E5.11251
G1 X117.297 Y132.490 E5.13458
G1 X116.304 Y132.150 E5.16575
G1 X115.623 Y131.851 E5.18782
G1 X114.700 Y131.351 E5.21899
G1 X114.077 Y130.945 E5.24107
G1 X113.249 Y130.300 E5.27223
G1 X112.702 Y129.797 E5.29430
G1 X112.331 Y129.425 E5.30990
G1 X71.694 Y85.282 E7.09138
G1 X71.354 Y84.881 E7.10698
G1 X70.898 Y84.294 E7.12905
G1 X70.323 Y83.415 E7.16022
G1 X69.970 Y82.761 E7.18229
G1 X69.548 Y81.800 E7.21346
G1 X69.307 Y81.097 E7.23553
G1 X69.049 Y80.079 E7.26670
G1 X68.927 Y79.346 E7.28877
G1 X68.840 Y78.300 E7.31994
G1 X68.840 Y77.557 E7.34201
G1 X68.927 Y76.510 E7.37318
G1 X69.049 Y75.777 E7.39525
G1 X69.307 Y74.759 E7.42642
G1 X69.548 Y74.056 E7.44850
G1 X69.970 Y73.095 E7.47966
G1 X70.323 Y72.441 E7.50173
G1 X70.898 Y71.562 E7.53290
G1 X71.354 Y70.976 E7.55497
G1 X72.025 Y70.248 E7.58436
G1 E5.58436 F2400.00000
G92 E0
G1 X122.950 Y124.467 F7800.000
G1 E2.00000 F2400.00000
G1 X122.728 Y124.689 E2.00932 F1800.000
G1 X122.488 Y124.892 E2.01864
G1 X121.991 Y125.213 E2.03621
G1 X121.436 Y125.451 E2.05413
G1 X120.849 Y125.591 E2.07205
G1 X120.247 Y125.630 E2.08998
G1 X119.647 Y125.567 E2.10790
G1 X119.066 Y125.403 E2.12582
G1 X118.521 Y125.143 E2.14375
G1 X118.027 Y124.795 E2.16167
G1 X117.600 Y124.369 E2.17960
G1 X117.251 Y123.876 E2.19752
G1 X116.990 Y123.332 E2.21544
G1 X116.825 Y122.751 E2.23337
G1 X116.760 Y122.151 E2.25129
G1 X116.798 Y121.549 E2.26921
G1 X116.937 Y120.961 E2.28714
G1 X117.173 Y120.406 E2.30506
G1 X117.500 Y119.898 E2.32298
G1 X117.908 Y119.453 E2.34091
G1 X118.385 Y119.083 E2.35883
G1 X118.918 Y118.800 E2.37675
G1 X119.491 Y118.610 E2.39468
G1 X120.070 Y118.523 E2.41205 F1800.000
G1 X120.690 Y118.532 E2.43047
G1 X121.284 Y118.646 E2.44844
G1 X121.849 Y118.859 E2.46637
G1 X122.370 Y119.164 E2.48429
G1 X122.832 Y119.552 E2.50221
G1 X123.222 Y120.013 E2.52014
G1 X123.528 Y120.534 E2.53806
G1 X123.742 Y121.098 E2.55598
G1 X123.857 Y121.691 E2.57391
G1 X123.871 Y122.294 E2.59183
G1 X123.782 Y122.891 E2.60975
G1 X123.594 Y123.465 E2.62768
G1 X123.311 Y123.998 E2.64560
G1 X122.986 Y124.419 E2.66139
G1 X122.681 Y124.231 F7800.000
G1 X122.275 Y124.604 E2.67776 F1800.000
G1 X121.823 Y124.897 E2.69375
G1 X121.324 Y125.110 E2.70987
G1 X120.796 Y125.237 E2.72599
G1 X120.254 Y125.272 E2.74211
G1 X119.714 Y125.215 E2.75823
G1 X119.192 Y125.068 E2.77435
G1 X118.702 Y124.834 E2.79046
G1 X118.258 Y124.521 E2.80658
G1 X117.874 Y124.138 E2.82270
G1 X117.560 Y123.695 E2.83882
G1 X117.325 Y123.205 E2.85494
G1 X117.177 Y122.683 E2.87106
G1 X117.119 Y122.143 E2.88718
G1 X117.152 Y121.601 E2.90330
G1 X117.277 Y121.073 E2.91941
G1 X117.490 Y120.574 E2.93553
G1 X117.784 Y120.117 E2.95165
G1 X118.151 Y119.717 E2.96777
G1 X118.580 Y119.384 E2.98389
G1 X119.059 Y119.129 E3.00001
G1 X119.574 Y118.959 E3.01613
G1 X120.094 Y118.880 E3.03173 F1800.000
G1 X120.653 Y118.889 E3.04834
G1 X121.187 Y118.991 E3.06448
G1 X121.695 Y119.182 E3.08060
G1 X122.164 Y119.456 E3.09671
G1 X122.579 Y119.806 E3.11283
G1 X122.930 Y120.221 E3.12895
G1 X123.205 Y120.688 E3.14507
G1 X123.397 Y121.196 E3.16119
G1 X123.501 Y121.729 E3.17731
G1 X123.513 Y122.272 E3.19343
G1 X123.433 Y122.809 E3.20955
G1 X123.264 Y123.325 E3.22567
G1 X123.010 Y123.804 E3.24178
G1 X122.717 Y124.183 E3.25599
G1 X122.790 Y124.616 F7800.000
G1 E1.25599 F2400.00000
G92 E0
G1 X121.654 Y118.228 F7800.000
G1 E2.00000 F2400.00000
G1 X121.559 Y118.368 E2.00503 F1800.000
G1 X121.382 Y118.301 E2.01065
G1 X120.727 Y118.175 E2.03046
G1 X120.046 Y118.165 E2.05068
G1 X119.408 Y118.262 E2.06983
G1 X118.777 Y118.470 E2.08956
G1 X118.190 Y118.783 E2.10929
G1 X117.665 Y119.190 E2.12902
G1 X117.216 Y119.679 E2.14875
G1 X116.857 Y120.238 E2.16847
G1 X116.597 Y120.850 E2.18820
G1 X116.444 Y121.496 E2.20793
G1 X116.402 Y122.159 E2.22766
G1 X116.473 Y122.820 E2.24739
G1 X116.525 Y123.002 E2.25301
G1 X116.377 Y123.085 E2.25804
G1 X78.343 Y81.768 E3.92544
G1 X78.427 Y81.630 E3.93025
G1 X78.942 Y81.775 E3.94612
G1 X79.603 Y81.845 E3.96585
G1 X80.266 Y81.802 E3.98558
G1 X80.912 Y81.647 E4.00531
G1 X81.523 Y81.386 E4.02504
G1 X82.081 Y81.025 E4.04477
G1 X82.570 Y80.575 E4.06450
G1 X82.975 Y80.049 E4.08422
G1 X83.286 Y79.462 E4.10395
G1 X83.494 Y78.830 E4.12368
G1 X83.591 Y78.173 E4.14341
G1 X83.576 Y77.506 E4.16321
G1 X83.471 Y76.982 E4.17910
G1 X83.616 Y76.908 E4.18393
G1 X121.613 Y118.184 E5.84967
G1 X82.305 Y80.333 F7800.000
G1 X81.861 Y80.742 E5.86759 F1800.000
G1 X81.354 Y81.070 E5.88551
G1 X80.800 Y81.307 E5.90344
G1 X80.212 Y81.448 E5.92136
G1 X79.610 Y81.487 E5.93929
G1 X79.010 Y81.423 E5.95721
G1 X78.429 Y81.260 E5.97513
G1 X77.884 Y81.000 E5.99306
G1 X77.390 Y80.652 E6.01098
G1 X76.963 Y80.225 E6.02890
G1 X76.614 Y79.733 E6.04683
G1 X76.361 Y79.205 E6.06420
G1 X76.188 Y78.610 E6.08262
G1 X76.123 Y78.008 E6.10059
G1 X76.161 Y77.405 E6.11851
G1 X76.300 Y76.818 E6.13644
G1 X76.536 Y76.262 E6.15436
G1 X76.863 Y75.755 E6.17228
G1 X77.271 Y75.310 E6.19021
G1 X77.748 Y74.940 E6.20813
G1 X78.281 Y74.656 E6.22606
G1 X78.854 Y74.467 E6.24398
G1 X79.433 Y74.379 E6.26135 F1800.000
G1 X80.053 Y74.389 E6.27977
G1 X80.647 Y74.503 E6.29774
G1 X81.212 Y74.715 E6.31567
G1 X81.733 Y75.020 E6.33359
G1 X82.195 Y75.409 E6.35151
G1 X82.585 Y75.870 E6.36944
G1 X82.891 Y76.390 E6.38736
G1 X83.098 Y76.937 E6.40474
G1 X83.220 Y77.546 E6.42316
G1 X83.234 Y78.151 E6.44112
G1 X83.145 Y78.748 E6.45905
G1 X82.957 Y79.321 E6.47697
G1 X82.674 Y79.855 E6.49490
G1 X82.342 Y80.285 E6.51104
G1 X82.041 Y80.091 F7800.000
G1 X81.642 Y80.458 E6.52716 F1800.000
G1 X81.186 Y80.753 E6.54327
G1 X80.687 Y80.967 E6.55939
G1 X80.159 Y81.093 E6.57551
G1 X79.617 Y81.128 E6.59163
G1 X79.077 Y81.071 E6.60775
G1 X78.555 Y80.924 E6.62387
G1 X78.065 Y80.691 E6.63999
G1 X77.621 Y80.378 E6.65611
G1 X77.237 Y79.994 E6.67223
G1 X76.923 Y79.551 E6.68834
G1 X76.696 Y79.078 E6.70394
G1 X76.540 Y78.540 E6.72056
G1 X76.482 Y78.000 E6.73669
G1 X76.516 Y77.458 E6.75281
G1 X76.641 Y76.930 E6.76893
G1 X76.853 Y76.430 E6.78505
G1 X77.147 Y75.974 E6.80117
G1 X77.514 Y75.573 E6.81729
G1 X77.943 Y75.241 E6.83341
G1 X78.422 Y74.986 E6.84953
G1 X78.937 Y74.815 E6.86564
G1 X79.457 Y74.737 E6.88124 F1800.000
G1 X80.017 Y74.745 E6.89786
G1 X80.550 Y74.848 E6.91399
G1 X81.058 Y75.039 E6.93011
G1 X81.527 Y75.313 E6.94623
G1 X81.942 Y75.662 E6.96235
G1 X82.293 Y76.077 E6.97847
G1 X82.568 Y76.545 E6.99459
G1 X82.754 Y77.036 E7.01019
G1 X82.864 Y77.585 E7.02680
G1 X82.876 Y78.128 E7.04294
G1 X82.796 Y78.665 E7.05906
G1 X82.627 Y79.181 E7.07518
G1 X82.373 Y79.661 E7.09129
G1 X82.078 Y80.043 E7.10563
G1 X82.151 Y80.476 F7800.000
G1 X84.742 Y77.604 F7800.000
G1 X123.204 Y119.384 E8.79173 F1800.000
G1 X123.618 Y119.916 E8.81175
G1 X123.928 Y120.489 E8.83107
G1 X124.139 Y121.104 E8.85040
G1 X124.242 Y121.723 E8.86903
G1 X124.246 Y122.399 E8.88908
G1 X124.139 Y123.039 E8.90837
G1 X123.928 Y123.655 E8.92769
G1 X123.629 Y124.207 E8.94633
G1 X123.217 Y124.742 E8.96638
G1 X122.739 Y125.182 E8.98566
G1 X122.194 Y125.538 E9.00498
G1 X121.598 Y125.799 E9.02431
G1 X120.967 Y125.959 E9.04364
G1 X120.318 Y126.013 E9.06296
G1 X119.670 Y125.959 E9.08229
G1 X119.039 Y125.799 E9.10161
G1 X118.443 Y125.538 E9.12094
G1 X117.917 Y125.194 E9.13957
G1 X117.401 Y124.724 E9.16031
G1 X76.796 Y80.616 E10.94038
G1 X76.382 Y80.084 E10.96039
G1 X76.072 Y79.511 E10.97972
G1 X75.861 Y78.896 E10.99904
G1 X75.758 Y78.277 E11.01768
G1 X75.754 Y77.601 E11.03773
G1 X75.861 Y76.961 E11.05701
G1 X76.072 Y76.345 E11.07634
G1 X76.382 Y75.773 E11.09566
G1 X76.782 Y75.259 E11.11499
G1 X77.261 Y74.818 E11.13431
G1 X77.806 Y74.462 E11.15364
G1 X78.402 Y74.201 E11.17296
G1 X79.033 Y74.041 E11.19229
G1 X79.682 Y73.987 E11.21162
G1 X80.307 Y74.039 E11.23025
G1 X80.963 Y74.201 E11.25030 F1800.000
G1 X81.557 Y74.462 E11.26958
G1 X82.102 Y74.818 E11.28891
G1 X82.598 Y75.275 E11.30892
G1 X84.702 Y77.560 E11.40115
G1 X85.005 Y77.362 F7800.000
G1 X123.476 Y119.153 E13.08769 F1800.000
G1 X123.918 Y119.720 E13.10902
G1 X124.256 Y120.345 E13.13010
G1 X124.486 Y121.016 E13.15118
G1 X124.599 Y121.693 E13.17155
G1 X124.603 Y122.427 E13.19336
G1 X124.486 Y123.127 E13.21442
G1 X124.256 Y123.799 E13.23551
G1 X123.929 Y124.402 E13.25587
G1 X123.481 Y124.984 E13.27768
G1 X122.959 Y125.464 E13.29874
G1 X122.365 Y125.853 E13.31983
G1 X121.714 Y126.138 E13.34091
G1 X121.026 Y126.312 E13.36199
G1 X120.318 Y126.371 E13.38308
G1 X119.611 Y126.312 E13.40416
G1 X118.922 Y126.138 E13.42524
G1 X118.272 Y125.853 E13.44632
G1 X117.698 Y125.478 E13.46669
G1 X117.149 Y124.978 E13.48874
G1 X76.524 Y80.847 E15.26971
G1 X76.082 Y80.280 E15.29104
G1 X75.744 Y79.655 E15.31213
G1 X75.514 Y78.984 E15.33321
G1 X75.401 Y78.307 E15.35357
G1 X75.397 Y77.573 E15.37538
G1 X75.514 Y76.873 E15.39645
G1 X75.744 Y76.201 E15.41753
G1 X76.082 Y75.577 E15.43861
G1 X76.518 Y75.016 E15.45970
G1 X77.041 Y74.536 E15.48078
G1 X77.635 Y74.147 E15.50186
G1 X78.286 Y73.862 E15.52294
G1 X78.974 Y73.688 E15.54403
G1 X79.682 Y73.629 E15.56511
G1 X80.365 Y73.686 E15.58547
G1 X81.078 Y73.862 E15.60728 F1800.000
G1 X81.728 Y74.147 E15.62835
G1 X82.322 Y74.536 E15.64943
G1 X82.851 Y75.022 E15.67076
G1 X84.965 Y77.318 E15.76343
G1 X84.886 Y77.744 F7800.000
G1 X84.301 Y78.064 F7800.000
G1 X83.787 Y77.550 E15.78565 F1800.000
G1 X83.799 Y78.081 E15.80190
G1 X90.325 Y84.607 E16.08393
G1 X85.583 Y89.221 F7800.000
G1 X116.640 Y120.278 E17.42615 F1800.000
G1 X116.830 Y119.949 E17.43777
G1 X79.559 Y82.678 E19.04855
G1 X79.447 Y82.046 E19.06817
G1 X117.034 Y119.633 E20.69260
G1 X117.275 Y119.354 E20.70386
G1 X79.947 Y82.026 E22.31712
G1 X80.407 Y81.966 E22.33128
G1 X117.524 Y119.083 E23.93541
G1 X117.812 Y118.852 E23.94671
G1 X80.826 Y81.866 E25.54518
G1 X81.203 Y81.723 E25.55750
G1 X118.105 Y118.625 E27.15233
G1 X118.443 Y118.443 E27.16406
G1 X81.567 Y81.567 E28.75776
G1 X81.885 Y81.365 E28.76927
G1 X118.788 Y118.269 E30.36418
G1 X119.179 Y118.139 E30.37675
G1 X82.197 Y81.158 E31.97504
G1 X82.468 Y80.909 E31.98628
G1 X119.593 Y118.034 E33.59078
G1 X120.045 Y117.966 E33.60473
G1 X82.733 Y80.654 E35.21730
G1 X82.959 Y80.360 E35.22862
G1 X120.563 Y117.964 E36.85379
G1 X120.442 Y117.323 E36.87372
G1 X83.176 Y80.057 E38.48429
G1 X83.356 Y79.718 E38.49604
G1 X114.418 Y110.780 E39.83850
G1 X109.677 Y115.394 F7800.000
G1 X116.213 Y121.930 E40.12098 F1800.000
G1 X116.256 Y121.454 E40.13560
G1 X103.653 Y108.851 E40.68027
G1 X108.395 Y104.237 F7800.000
G1 X83.518 Y79.360 E41.75542 F1800.000
G1 X83.646 Y78.968 E41.76800
G1 X102.371 Y97.694 E42.57727
G1 X97.630 Y102.308 F7800.000
G1 X116.355 Y121.033 E43.38656 F1800.000
G1 X116.484 Y120.643 E43.39914
G1 X91.606 Y95.764 E44.47433
G1 X96.348 Y91.150 F7800.000
G1 X83.737 Y78.539 E45.01937 F1800.000
G1 X115.700 Y121.937 F7800.000
G1 X116.209 Y122.446 E45.04135 F1800.000
G1 X116.538 Y123.199 F7800.000
G1 X116.686 Y123.461 E45.05027 F1800.000
G1 X117.051 Y123.999 E45.06958
G1 X117.451 Y124.493 E45.08845
G1 X117.719 Y124.757 E45.09962
G1 E43.09962 F2400.00000
G92 E0
G1 X123.232 Y119.730 F7800.000
G1 E2.00000 F2400.00000
G1 X122.970 Y119.416 E2.01215 F1800.000
G1 X122.509 Y118.975 E2.03109
G1 X122.003 Y118.566 E2.05041
G1 X121.754 Y118.398 E2.05932
G1 X83.459 Y76.787 F7800.000
G1 X83.136 Y76.264 E2.07760 F1800.000
G1 X82.756 Y75.752 E2.09653
G1 X82.375 Y75.328 E2.11345
G1 E0.11345 F2400.00000
G92 E0
G1 X76.867 Y80.398 F7800.000
G1 E2.00000 F2400.00000
G1 X77.259 Y80.812 E2.01692 F1800.000
G1 X77.738 Y81.233 E2.03585
G1 X78.236 Y81.601 E2.05423
G1 Z0.400 F7800.000
G1 X118.151 Y119.717 F7800.000
G1 X118.580 Y119.384 E2.07035 F900.000
G1 X119.059 Y119.129 E2.08647
G1 X119.574 Y118.959 E2.10259
G1 X120.059 Y118.886 E2.11715 F900.000
G1 X120.652 Y118.888 E2.13476
G1 X121.187 Y118.991 E2.15093
G1 X121.695 Y119.182 E2.16705
G1 X122.164 Y119.456 E2.18317
G1 X122.579 Y119.806 E2.19928
G1 X122.930 Y120.221 E2.21540
G1 X123.205 Y120.688 E2.23152
G1 X123.397 Y121.196 E2.24764
G1 X123.501 Y121.729 E2.26376
G1 X123.513 Y122.272 E2.27988
G1 X123.433 Y122.809 E2.29600
G1 X123.264 Y123.325 E2.31212
G1 X123.010 Y123.804 E2.32823
G1 X122.678 Y124.234 E2.34435
G1 X122.279 Y124.602 E2.36047
G1 X121.823 Y124.897 E2.37659
G1 X121.324 Y125.110 E2.39271
G1 X120.796 Y125.237 E2.40883
G1 X120.254 Y125.272 E2.42495
G1 X119.714 Y125.215 E2.44107
G1 X119.192 Y125.068 E2.45719
G1 X118.702 Y124.834 E2.47330
G1 X118.258 Y124.521 E2.48942
G1 X117.874 Y124.138 E2.50554
G1 X117.560 Y123.695 E2.52166
G1 X117.325 Y123.205 E2.53778
G1 X117.177 Y122.683 E2.55390
G1 X117.119 Y122.143 E2.57002
G1 X117.152 Y121.601 E2.58614
G1 X117.265 Y121.124 E2.60070
G1 X117.489 Y120.575 E2.61831
G1 X117.784 Y120.117 E2.63447
G1 X118.110 Y119.761 E2.64881
G1 X118.074 Y119.324 F7800.000
G1 X120.677 Y117.767 F7800.000
G1 X119.978 Y117.764 E2.68533 F3600.000
G1 X119.313 Y117.864 E2.72047
G1 X118.616 Y118.095 E2.75880
G1 X117.969 Y118.440 E2.79714
G1 X117.389 Y118.889 E2.83547
G1 X116.893 Y119.430 E2.87380
G1 X116.490 Y120.056 E2.91267
G1 X116.195 Y120.782 E2.95363
G1 X116.040 Y121.436 E2.98876
G1 X116.000 Y122.074 E3.02216
G1 X79.356 Y82.269 E5.84879
G1 X80.327 Y82.206 E5.89960
G1 X81.040 Y82.035 E5.93794
G1 X81.715 Y81.746 E5.97627
G1 X82.331 Y81.348 E6.01460
G1 X82.871 Y80.851 E6.05293
G1 X83.319 Y80.270 E6.09127
G1 X83.662 Y79.622 E6.12960
G1 X83.891 Y78.924 E6.16793
G1 X84.034 Y77.963 E6.21874
G1 X120.636 Y117.723 E9.04221
G1 X122.077 Y118.835 F7800.000
G1 X121.908 Y118.736 E9.05245 F3600.000
G1 X121.321 Y118.515 E9.08519
G1 X120.701 Y118.396 E9.11822
