; generated by Slic3r 1.2.9 on 2016-05-01 at 18:25:35

; external perimeters extrusion width = 0.40mm
; perimeters extrusion width = 0.67mm
; infill extrusion width = 0.67mm
; solid infill extrusion width = 0.67mm
; top infill extrusion width = 0.67mm

M107
M190 S55 ; set bed temperature
M104 S200 ; set temperature
G28 ; home all axes
G1 Z5 F5000 ; lift nozzle

M109 S200 ; wait for temperature to be reached
G21 ; set units to millimeters
G90 ; use absolute coordinates
M82 ; use absolute distances for extrusion
G92 E0
G1 Z0.200 F7800.000
G1 E-2.00000 F2400.00000
G92 E0
G1 X95.970 Y88.347 F7800.000
G1 E2.00000 F2400.00000
G1 X102.171 Y81.611 E2.27185 F1800.000
G1 X102.543 Y81.239 E2.28745
G1 X103.090 Y80.736 E2.30951
G1 X103.918 Y80.091 E2.34069
G1 X104.541 Y79.684 E2.36276
G1 X105.464 Y79.185 E2.39393
G1 X106.145 Y78.886 E2.41600
G1 X107.138 Y78.545 E2.44717
G1 X107.858 Y78.363 E2.46925
G1 X108.894 Y78.190 E2.50041
G1 X109.635 Y78.129 E2.52248
G1 X110.684 Y78.129 E2.55365
G1 X111.425 Y78.190 E2.57572 F1800.000
G1 X112.460 Y78.363 E2.60689
G1 X113.181 Y78.545 E2.62896
G1 X114.174 Y78.886 E2.66013
G1 X114.832 Y79.175 E2.68146
G1 X115.778 Y79.685 E2.71337
G1 X116.400 Y80.091 E2.73544
G1 X117.229 Y80.736 E2.76661
G1 X117.776 Y81.239 E2.78868
G1 X118.487 Y82.012 E2.81985
G1 X118.943 Y82.598 E2.84192
G1 X119.517 Y83.477 E2.87309
G1 X119.871 Y84.131 E2.89516
G1 X120.293 Y85.092 E2.92633
G1 X120.534 Y85.795 E2.94840
G1 X120.792 Y86.813 E2.97957
G1 X120.914 Y87.546 E3.00164
G1 X121.001 Y88.593 E3.03281
G1 X121.001 Y89.336 E3.05488
G1 X120.914 Y90.382 E3.08605
G1 X120.792 Y91.115 E3.10813
G1 X120.534 Y92.133 E3.13929
G1 X120.293 Y92.836 E3.16137
G1 X119.871 Y93.797 E3.19254
G1 X119.517 Y94.451 E3.21460
G1 X118.943 Y95.330 E3.24578
G1 X118.487 Y95.917 E3.26784
G1 X118.147 Y96.317 E3.28344
G1 X97.829 Y118.389 E4.17418
G1 X97.457 Y118.761 E4.18978
G1 X96.910 Y119.264 E4.21186
G1 X96.082 Y119.909 E4.24302
G1 X95.460 Y120.315 E4.26509
G1 X94.536 Y120.815 E4.29626
G1 X93.856 Y121.114 E4.31833
G1 X92.863 Y121.455 E4.34950
G1 X92.142 Y121.637 E4.37157
G1 X91.106 Y121.810 E4.40275
G1 X90.366 Y121.871 E4.42481
G1 X89.316 Y121.871 E4.45599
G1 X88.575 Y121.810 E4.47805
G1 X87.540 Y121.637 E4.50923
G1 X86.819 Y121.455 E4.53130
G1 X85.826 Y121.114 E4.56247
G1 X85.145 Y120.815 E4.58453
G1 X84.222 Y120.315 E4.61571
G1 X83.600 Y119.909 E4.63778
G1 X82.771 Y119.264 E4.66895
G1 X82.224 Y118.761 E4.69102
G1 X81.513 Y117.988 E4.72219
G1 X81.057 Y117.402 E4.74426
G1 X80.483 Y116.523 E4.77543
G1 X80.141 Y115.891 E4.79676
G1 X79.707 Y114.908 E4.82867
G1 X79.466 Y114.204 E4.85074
G1 X79.208 Y113.187 E4.88191
G1 X79.086 Y112.454 E4.90398
G1 X78.999 Y111.407 E4.93515
G1 X78.999 Y110.664 E4.95722
G1 X79.086 Y109.618 E4.98839
G1 X79.208 Y108.885 E5.01046
G1 X79.466 Y107.867 E5.04163
G1 X79.707 Y107.164 E5.06370
G1 X80.129 Y106.203 E5.09487
G1 X80.483 Y105.549 E5.11694
G1 X81.057 Y104.670 E5.14811
G1 X81.513 Y104.083 E5.17018
G1 X81.853 Y103.683 E5.18578
G1 X95.930 Y88.391 E5.80289
G1 E3.80289 F2400.00000
G92 E0
G1 X92.744 Y113.094 F7800.000
G1 E2.00000 F2400.00000
G1 X92.355 Y113.555 E2.01792 F1800.000
G1 X91.893 Y113.944 E2.03585
G1 X91.372 Y114.249 E2.05377
G1 X90.807 Y114.461 E2.07169
G1 X90.214 Y114.575 E2.08962
G1 X89.610 Y114.587 E2.10754
G1 X89.013 Y114.497 E2.12547
G1 X88.440 Y114.308 E2.14339
G1 X87.907 Y114.024 E2.16131
G1 X87.430 Y113.654 E2.17924
G1 X87.022 Y113.209 E2.19716
G1 X86.696 Y112.702 E2.21508
G1 X86.459 Y112.146 E2.23301
G1 X86.320 Y111.559 E2.25093
G1 X86.283 Y110.956 E2.26885
G1 X86.347 Y110.356 E2.28678
G1 X86.507 Y109.793 E2.30415
G1 X86.772 Y109.232 E2.32257
G1 X87.122 Y108.739 E2.34054
G1 X87.550 Y108.312 E2.35846
G1 X88.043 Y107.964 E2.37639
G1 X88.650 Y107.675 E2.39635
G1 X89.175 Y107.540 E2.41246
G1 X89.751 Y107.479 E2.42964 F1800.000
G1 X90.370 Y107.516 E2.44806
G1 X90.959 Y107.657 E2.46603
G1 X91.514 Y107.894 E2.48395
G1 X92.011 Y108.216 E2.50152
G1 X92.250 Y108.418 E2.51084
G1 X92.472 Y108.641 E2.52016
G1 X92.833 Y109.109 E2.53773
G1 X93.116 Y109.643 E2.55565
G1 X93.304 Y110.216 E2.57358
G1 X93.393 Y110.813 E2.59150
G1 X93.379 Y111.417 E2.60943
G1 X93.264 Y112.009 E2.62735
G1 X93.050 Y112.574 E2.64527
G1 X92.775 Y113.043 E2.66141
G1 X92.452 Y112.887 F7800.000
G1 X92.101 Y113.302 E2.67753 F1800.000
G1 X91.686 Y113.651 E2.69365
G1 X91.218 Y113.925 E2.70977
G1 X90.709 Y114.116 E2.72589
G1 X90.176 Y114.219 E2.74201
G1 X89.634 Y114.230 E2.75813
G1 X89.097 Y114.149 E2.77425
G1 X88.581 Y113.978 E2.79037
G1 X88.102 Y113.723 E2.80648
G1 X87.673 Y113.391 E2.82260
G1 X87.306 Y112.990 E2.83872
G1 X87.012 Y112.534 E2.85484
G1 X86.800 Y112.034 E2.87096
G1 X86.675 Y111.506 E2.88708
G1 X86.641 Y110.964 E2.90320
G1 X86.699 Y110.425 E2.91932
G1 X86.843 Y109.919 E2.93491
G1 X87.082 Y109.413 E2.95153
G1 X87.396 Y108.970 E2.96767
G1 X87.780 Y108.587 E2.98378
G1 X88.224 Y108.274 E2.99990
G1 X88.772 Y108.012 E3.01794
G1 X89.239 Y107.892 E3.03224
G1 X89.759 Y107.838 E3.04777 F1800.000
G1 X90.318 Y107.871 E3.06439
G1 X90.846 Y107.997 E3.08052
G1 X91.345 Y108.211 E3.09664
G1 X91.797 Y108.503 E3.11263
G1 X92.008 Y108.681 E3.12082
G1 X92.203 Y108.877 E3.12901
G1 X92.532 Y109.303 E3.14501
G1 X92.786 Y109.783 E3.16113
G1 X92.955 Y110.299 E3.17724
G1 X93.035 Y110.836 E3.19336
G1 X93.023 Y111.378 E3.20948
G1 X92.919 Y111.911 E3.22560
G1 X92.727 Y112.419 E3.24172
G1 X92.482 Y112.835 E3.25606
G1 X92.608 Y113.255 F7800.000
G1 X93.634 Y111.980 F7800.000
G1 X93.736 Y111.455 E3.27193 F1800.000
G1 X93.751 Y110.791 E3.29166
G1 X93.653 Y110.134 E3.31139
G1 X93.446 Y109.502 E3.33112
G1 X93.135 Y108.915 E3.35085
G1 X92.741 Y108.405 E3.37000
G1 X92.492 Y108.156 E3.38044
G1 X92.224 Y107.928 E3.39088
G1 X91.682 Y107.578 E3.41003
G1 X91.071 Y107.317 E3.42976
G1 X90.423 Y107.162 E3.44956
G1 X89.743 Y107.121 E3.46979
G1 X89.112 Y107.188 E3.48862
G1 X88.596 Y107.320 E3.50444
G1 X88.514 Y107.183 E3.50919
G1 X106.222 Y87.947 E4.28549
G1 X106.369 Y88.029 E4.29050
G1 X106.312 Y88.235 E4.29686
G1 X106.243 Y88.877 E4.31601
G1 X106.284 Y89.540 E4.33574
G1 X106.437 Y90.186 E4.35547
G1 X106.697 Y90.798 E4.37519
G1 X107.057 Y91.356 E4.39492
G1 X107.506 Y91.846 E4.41465
G1 X108.031 Y92.253 E4.43438
G1 X108.618 Y92.566 E4.45411
G1 X109.249 Y92.774 E4.47384
G1 X109.906 Y92.873 E4.49356
G1 X110.570 Y92.860 E4.51329
G1 X111.222 Y92.735 E4.53302
G1 X111.400 Y92.668 E4.53865
G1 X111.494 Y92.808 E4.54367
G1 X93.778 Y112.053 E5.32033
G1 X93.687 Y112.007 E5.32336
G1 X108.226 Y91.952 F7800.000
G1 X107.749 Y91.583 E5.34129 F1800.000
G1 X107.341 Y91.138 E5.35921
G1 X107.014 Y90.630 E5.37713
G1 X106.778 Y90.075 E5.39506
G1 X106.639 Y89.487 E5.41298
G1 X106.601 Y88.885 E5.43090
G1 X106.664 Y88.303 E5.44828
G1 X106.830 Y87.705 E5.46670
G1 X107.092 Y87.159 E5.48467
G1 X107.441 Y86.667 E5.50259
G1 X107.868 Y86.241 E5.52051
G1 X108.361 Y85.893 E5.53844
G1 X108.906 Y85.633 E5.55636
G1 X109.487 Y85.469 E5.57429
G1 X110.069 Y85.408 E5.59166 F1800.000
G1 X110.689 Y85.444 E5.61008
G1 X111.277 Y85.585 E5.62805
G1 X111.832 Y85.823 E5.64597
G1 X112.329 Y86.144 E5.66354
G1 X112.569 Y86.347 E5.67286
G1 X112.790 Y86.569 E5.68218
G1 X113.152 Y87.038 E5.69975
G1 X113.434 Y87.571 E5.71767
G1 X113.623 Y88.145 E5.73560
G1 X113.711 Y88.742 E5.75352
G1 X113.698 Y89.345 E5.77144
G1 X113.583 Y89.938 E5.78937
G1 X113.369 Y90.502 E5.80729
G1 X113.063 Y91.023 E5.82522
G1 X112.685 Y91.469 E5.84259
G1 X112.212 Y91.871 E5.86101
G1 X111.690 Y92.177 E5.87898
G1 X111.125 Y92.390 E5.89690
G1 X110.532 Y92.504 E5.91483
G1 X109.929 Y92.516 E5.93275
G1 X109.332 Y92.426 E5.95067
G1 X108.759 Y92.236 E5.96860
G1 X108.279 Y91.981 E5.98474
G1 X108.421 Y91.651 F7800.000
G1 X107.991 Y91.319 E6.00086 F1800.000
G1 X107.625 Y90.919 E6.01698
G1 X107.331 Y90.462 E6.03310
G1 X107.118 Y89.963 E6.04921
G1 X106.993 Y89.434 E6.06533
G1 X106.959 Y88.893 E6.08145
G1 X107.016 Y88.370 E6.09705
G1 X107.166 Y87.831 E6.11367
G1 X107.401 Y87.341 E6.12980
G1 X107.714 Y86.898 E6.14592
G1 X108.099 Y86.515 E6.16204
G1 X108.542 Y86.202 E6.17816
G1 X109.032 Y85.968 E6.19428
G1 X109.555 Y85.821 E6.21040
G1 X110.077 Y85.766 E6.22599 F1800.000
G1 X110.636 Y85.799 E6.24261
G1 X111.165 Y85.925 E6.25875
G1 X111.664 Y86.139 E6.27486
G1 X112.116 Y86.432 E6.29086
G1 X112.327 Y86.610 E6.29905
G1 X112.522 Y86.805 E6.30724
G1 X112.850 Y87.232 E6.32323
G1 X113.105 Y87.711 E6.33935
G1 X113.274 Y88.227 E6.35547
G1 X113.354 Y88.764 E6.37159
G1 X113.342 Y89.307 E6.38771
G1 X113.238 Y89.840 E6.40383
G1 X113.046 Y90.347 E6.41994
G1 X112.770 Y90.815 E6.43606
G1 X112.431 Y91.217 E6.45166
G1 X112.005 Y91.579 E6.46828
G1 X111.536 Y91.854 E6.48441
G1 X111.028 Y92.045 E6.50053
G1 X110.495 Y92.147 E6.51665
G1 X109.952 Y92.158 E6.53277
G1 X109.415 Y92.077 E6.54889
G1 X108.900 Y91.907 E6.56501
G1 X108.474 Y91.680 E6.57934
G1 X108.059 Y91.824 F7800.000
G1 X110.924 Y93.956 F7800.000
G1 X92.757 Y113.689 E7.37573 F1800.000
G1 X92.261 Y114.146 E7.39574
G1 X91.716 Y114.502 E7.41507
G1 X91.120 Y114.763 E7.43440
G1 X90.489 Y114.923 E7.45372
G1 X89.841 Y114.977 E7.47305
G1 X89.192 Y114.923 E7.49237
G1 X88.561 Y114.763 E7.51170
G1 X87.965 Y114.502 E7.53103
G1 X87.420 Y114.146 E7.55035
G1 X86.941 Y113.705 E7.56968
G1 X86.541 Y113.191 E7.58900
G1 X86.243 Y112.639 E7.60764
G1 X86.020 Y112.002 E7.62769
G1 X85.913 Y111.361 E7.64697
G1 X85.913 Y110.710 E7.66630
G1 X86.020 Y110.068 E7.68562
G1 X86.232 Y109.453 E7.70495
G1 X86.541 Y108.880 E7.72427
G1 X86.955 Y108.348 E7.74429
G1 X107.243 Y86.311 E8.63366
G1 X107.739 Y85.854 E8.65367
G1 X108.264 Y85.511 E8.67230
G1 X108.881 Y85.236 E8.69236
G1 X109.511 Y85.077 E8.71164
G1 X110.159 Y85.023 E8.73096
G1 X110.785 Y85.075 E8.74960
G1 X111.440 Y85.237 E8.76965 F1800.000
G1 X112.035 Y85.498 E8.78893
G1 X112.580 Y85.854 E8.80826
G1 X113.059 Y86.295 E8.82758
G1 X113.444 Y86.790 E8.84622
G1 X113.769 Y87.382 E8.86627
G1 X113.980 Y87.997 E8.88555
G1 X114.087 Y88.639 E8.90488
G1 X114.087 Y89.290 E8.92420
G1 X113.983 Y89.909 E8.94284
G1 X113.768 Y90.549 E8.96289
G1 X113.459 Y91.120 E8.98217
G1 X113.045 Y91.652 E9.00218
G1 X110.964 Y93.911 E9.09338
G1 X111.186 Y94.197 F7800.000
G1 X93.010 Y113.942 E9.89021 F1800.000
G1 X92.481 Y114.429 E9.91154
G1 X91.887 Y114.817 E9.93262
G1 X91.237 Y115.102 E9.95370
G1 X90.548 Y115.277 E9.97479
G1 X89.841 Y115.335 E9.99587
G1 X89.133 Y115.277 E10.01695
G1 X88.445 Y115.102 E10.03804
G1 X87.795 Y114.817 E10.05912
G1 X87.200 Y114.429 E10.08020
G1 X86.678 Y113.948 E10.10128
G1 X86.242 Y113.387 E10.12237
G1 X85.915 Y112.784 E10.14273
G1 X85.673 Y112.091 E10.16454
G1 X85.556 Y111.391 E10.18561
G1 X85.556 Y110.681 E10.20669
G1 X85.673 Y109.980 E10.22777
G1 X85.904 Y109.309 E10.24886
G1 X86.242 Y108.684 E10.26994
G1 X86.683 Y108.117 E10.29127
G1 X106.990 Y86.058 E11.18151
G1 X107.519 Y85.571 E11.20284
G1 X108.093 Y85.196 E11.22321
G1 X108.764 Y84.898 E11.24502
G1 X109.452 Y84.723 E11.26608
G1 X110.159 Y84.665 E11.28717
G1 X110.843 Y84.721 E11.30753
G1 X111.556 Y84.898 E11.32934 F1800.000
G1 X112.205 Y85.183 E11.35040
G1 X112.800 Y85.571 E11.37149
G1 X113.322 Y86.052 E11.39257
G1 X113.744 Y86.594 E11.41293
G1 X114.097 Y87.238 E11.43474
G1 X114.327 Y87.909 E11.45581
G1 X114.444 Y88.609 E11.47689
G1 X114.444 Y89.319 E11.49798
G1 X114.331 Y89.996 E11.51834
G1 X114.096 Y90.692 E11.54015
G1 X113.758 Y91.316 E11.56121
G1 X113.317 Y91.883 E11.58254
G1 X111.227 Y94.153 E11.67418
G1 X110.796 Y94.110 F7800.000
G1 X110.878 Y93.217 F7800.000
G1 X110.696 Y93.034 E11.68196 F1800.000
G1 X110.633 Y93.484 E11.69561
G1 X110.223 Y93.073 E11.71307
G1 X109.703 Y93.065 E11.72873
G1 X110.388 Y93.750 E11.75788
G1 X110.142 Y94.017 E11.76878
G1 X109.098 Y92.972 E11.81323
G1 X108.291 Y92.677 F7800.000
G1 X109.897 Y94.283 E11.88157 F1800.000
G1 X109.651 Y94.550 E11.89247
G1 X104.826 Y89.724 E12.09788
G1 X104.580 Y89.990 E12.10878
G1 X109.406 Y94.816 E12.31418
G1 X109.161 Y95.083 E12.32509
G1 X104.335 Y90.257 E12.53049
G1 X104.090 Y90.524 E12.54139
G1 X108.915 Y95.349 E12.74679
G1 X108.670 Y95.616 E12.75770
G1 X103.844 Y90.790 E12.96310
G1 X103.599 Y91.057 E12.97400
G1 X108.425 Y95.882 E13.17941
G1 X108.179 Y96.149 E13.19031
G1 X103.354 Y91.323 E13.39571
G1 X103.108 Y91.590 E13.40661
G1 X107.934 Y96.415 E13.61202
G1 X107.689 Y96.682 E13.62292
G1 X102.863 Y91.856 E13.82832
G1 X102.617 Y92.123 E13.83923
G1 X107.443 Y96.948 E14.04463
G1 X107.198 Y97.215 E14.05553
G1 X102.372 Y92.389 E14.26093
G1 X102.127 Y92.656 E14.27184
G1 X106.952 Y97.482 E14.47724
G1 X106.707 Y97.748 E14.48814
G1 X101.881 Y92.922 E14.69355
G1 X101.636 Y93.189 E14.70445
G1 X106.462 Y98.015 E14.90985
G1 X106.216 Y98.281 E14.92075
G1 X101.391 Y93.455 E15.12616
G1 X101.145 Y93.722 E15.13706
G1 X105.971 Y98.548 E15.34246
G1 X105.726 Y98.814 E15.35337
G1 X100.900 Y93.988 E15.55877
G1 X100.655 Y94.255 E15.56967
G1 X105.480 Y99.081 E15.77507
G1 X105.235 Y99.347 E15.78598
G1 X100.409 Y94.522 E15.99138
G1 X100.164 Y94.788 E16.00228
G1 X104.990 Y99.614 E16.20769
G1 X104.744 Y99.880 E16.21859
G1 X99.919 Y95.055 E16.42399
G1 X99.673 Y95.321 E16.43489
G1 X104.499 Y100.147 E16.64030
G1 X104.254 Y100.413 E16.65120
G1 X99.428 Y95.588 E16.85660
G1 X99.182 Y95.854 E16.86751
G1 X104.008 Y100.680 E17.07291
G1 X103.763 Y100.946 E17.08381
G1 X98.937 Y96.121 E17.28921
G1 X98.692 Y96.387 E17.30012
G1 X103.517 Y101.213 E17.50552
G1 X103.272 Y101.480 E17.51642
G1 X98.446 Y96.654 E17.72183
G1 X98.201 Y96.920 E17.73273
G1 X103.027 Y101.746 E17.93813
G1 X102.781 Y102.013 E17.94903
G1 X97.956 Y97.187 E18.15444
G1 X97.710 Y97.453 E18.16534
G1 X102.536 Y102.279 E18.37074
G1 X102.291 Y102.546 E18.38165
G1 X97.465 Y97.720 E18.58705
G1 X97.220 Y97.986 E18.59795
G1 X102.045 Y102.812 E18.80335
G1 X101.800 Y103.079 E18.81426
G1 X96.974 Y98.253 E19.01966
G1 X96.729 Y98.520 E19.03056
G1 X101.555 Y103.345 E19.23597
G1 X101.309 Y103.612 E19.24687
G1 X96.483 Y98.786 E19.45227
G1 X96.238 Y99.053 E19.46318
G1 X101.064 Y103.878 E19.66858
G1 X100.818 Y104.145 E19.67948
G1 X95.993 Y99.319 E19.88488
G1 X95.747 Y99.586 E19.89579
G1 X100.573 Y104.411 E20.10119
G1 X100.328 Y104.678 E20.11209
G1 X95.502 Y99.852 E20.31749
G1 X95.257 Y100.119 E20.32840
G1 X100.082 Y104.944 E20.53380
G1 X99.837 Y105.211 E20.54470
G1 X95.011 Y100.385 E20.75011
G1 X94.766 Y100.652 E20.76101
G1 X99.592 Y105.477 E20.96641
G1 X99.346 Y105.744 E20.97732
G1 X94.521 Y100.918 E21.18272
G1 X94.275 Y101.185 E21.19362
G1 X99.101 Y106.011 E21.39902
G1 X98.856 Y106.277 E21.40993
G1 X94.030 Y101.451 E21.61533
G1 X93.784 Y101.718 E21.62623
G1 X98.610 Y106.544 E21.83164
G1 X98.365 Y106.810 E21.84254
G1 X93.539 Y101.984 E22.04794
G1 X93.294 Y102.251 E22.05884
G1 X98.119 Y107.077 E22.26425
G1 X97.874 Y107.343 E22.27515
G1 X93.048 Y102.518 E22.48055
G1 X92.803 Y102.784 E22.49146
G1 X97.629 Y107.610 E22.69686
G1 X97.383 Y107.876 E22.70776
G1 X92.558 Y103.051 E22.91316
G1 X92.312 Y103.317 E22.92407
G1 X97.138 Y108.143 E23.12947
G1 X96.893 Y108.409 E23.14037
G1 X92.067 Y103.584 E23.34578
G1 X91.822 Y103.850 E23.35668
G1 X96.647 Y108.676 E23.56208
G1 X96.402 Y108.942 E23.57298
G1 X91.576 Y104.117 E23.77839
G1 X91.331 Y104.383 E23.78929
G1 X96.157 Y109.209 E23.99469
G1 X95.911 Y109.475 E24.00560
G1 X91.086 Y104.650 E24.21100
G1 X90.840 Y104.916 E24.22190
G1 X95.666 Y109.742 E24.42730
G1 X95.421 Y110.009 E24.43821
G1 X90.595 Y105.183 E24.64361
G1 X90.349 Y105.449 E24.65451
G1 X95.175 Y110.275 E24.85992
G1 X94.930 Y110.542 E24.87082
G1 X93.551 Y109.163 E24.92951
G1 X93.847 Y109.971 F7800.000
G1 X94.684 Y110.808 E24.96516 F1800.000
G1 X94.438 Y111.074 E24.97606
G1 X93.941 Y110.576 E24.99723
G1 X93.950 Y111.097 E25.01291
G1 X94.182 Y111.330 E25.02280
