; generated by Slic3r 1.2.9 on 2016-05-01 at 18:29:21

; external perimeters extrusion width = 0.40mm
; perimeters extrusion width = 0.67mm
; infill extrusion width = 0.67mm
; solid infill extrusion width = 0.67mm
; top infill extrusion width = 0.67mm

M107
M190 S55 ; set bed temperature
M104 S200 ; set temperature
G28 ; home all axes
G1 Z5 F5000 ; lift nozzle

M109 S200 ; wait for temperature to be reached
G21 ; set units to millimeters
G90 ; use absolute coordinates
M82 ; use absolute distances for extrusion
G92 E0
G1 Z0.200 F7800.000
G1 E-2.00000 F2400.00000
G92 E0
G1 X95.970 Y88.347 F7800.000
G1 E2.00000 F2400.00000
G1 X142.808 Y37.467 E4.05332 F1800.000
G1 X143.180 Y37.096 E4.06892
G1 X143.727 Y36.592 E4.09099
G1 X144.555 Y35.948 E4.12216
G1 X145.177 Y35.541 E4.14423
G1 X146.101 Y35.041 E4.17540
G1 X146.781 Y34.743 E4.19747
G1 X147.774 Y34.402 E4.22864
G1 X148.495 Y34.219 E4.25071
G1 X149.530 Y34.047 E4.28188
G1 X150.271 Y33.985 E4.30396
G1 X151.321 Y33.985 E4.33512
G1 X152.062 Y34.047 E4.35719 F1800.000
G1 X153.097 Y34.219 E4.38836
G1 X153.818 Y34.402 E4.41044
G1 X154.811 Y34.743 E4.44160
G1 X155.492 Y35.041 E4.46368
G1 X156.415 Y35.541 E4.49485
G1 X157.037 Y35.948 E4.51693
G1 X157.866 Y36.592 E4.54809
G1 X158.413 Y37.096 E4.57016
G1 X159.123 Y37.868 E4.60133
G1 X159.580 Y38.455 E4.62339
G1 X160.154 Y39.334 E4.65457
G1 X160.508 Y39.987 E4.67663
G1 X160.930 Y40.949 E4.70781
G1 X161.171 Y41.652 E4.72990
G1 X161.429 Y42.670 E4.76105
G1 X161.551 Y43.403 E4.78312
G1 X161.638 Y44.449 E4.81429
G1 X161.638 Y45.192 E4.83636
G1 X161.551 Y46.238 E4.86753
G1 X161.433 Y46.948 E4.88887
G1 X161.171 Y47.990 E4.92077
G1 X160.929 Y48.693 E4.94286
G1 X160.508 Y49.654 E4.97401
G1 X160.154 Y50.308 E4.99608
G1 X159.580 Y51.187 E5.02725
G1 X159.123 Y51.773 E5.04932
G1 X158.784 Y52.174 E5.06492
G1 X60.578 Y158.854 E9.37016
G1 X57.192 Y162.533 E9.51861
G1 X56.820 Y162.904 E9.53421
G1 X56.273 Y163.408 E9.55630
G1 X55.445 Y164.052 E9.58746
G1 X54.823 Y164.459 E9.60952
G1 X53.899 Y164.959 E9.64069
G1 X53.219 Y165.257 E9.66276
G1 X52.226 Y165.598 E9.69393
G1 X51.529 Y165.774 E9.71526
G1 X50.470 Y165.953 E9.74717
G1 X49.729 Y166.015 E9.76924
G1 X48.679 Y166.015 E9.80041
G1 X47.938 Y165.953 E9.82250
G1 X46.903 Y165.781 E9.85366
G1 X46.182 Y165.598 E9.87572
G1 X45.189 Y165.257 E9.90690
G1 X44.509 Y164.959 E9.92896
G1 X43.585 Y164.459 E9.96013
G1 X42.963 Y164.052 E9.98222
G1 X42.134 Y163.408 E10.01338
G1 X41.588 Y162.904 E10.03544
G1 X40.877 Y162.132 E10.06661
G1 X40.420 Y161.545 E10.08870
G1 X39.846 Y160.666 E10.11986
G1 X39.492 Y160.013 E10.14192
G1 X39.070 Y159.051 E10.17310
G1 X38.837 Y158.371 E10.19444
G1 X38.571 Y157.330 E10.22634
G1 X38.449 Y156.597 E10.24840
G1 X38.362 Y155.551 E10.27958
G1 X38.362 Y154.808 E10.30164
G1 X38.449 Y153.761 E10.33282
G1 X38.571 Y153.028 E10.35490
G1 X38.829 Y152.011 E10.38606
G1 X39.070 Y151.308 E10.40813
G1 X39.492 Y150.346 E10.43930
G1 X39.846 Y149.692 E10.46138
G1 X40.420 Y148.814 E10.49254
G1 X40.877 Y148.227 E10.51461
G1 X41.216 Y147.826 E10.53021
G1 X95.930 Y88.391 E12.92880
G1 E10.92880 F2400.00000
G92 E0
G1 X102.903 Y102.058 F7800.000
G1 E2.00000 F2400.00000
G1 X102.514 Y102.519 E2.01792 F1800.000
G1 X102.052 Y102.908 E2.03585
G1 X101.531 Y103.213 E2.05377
G1 X100.966 Y103.426 E2.07169
G1 X100.373 Y103.539 E2.08962
G1 X99.770 Y103.552 E2.10754
G1 X99.173 Y103.462 E2.12547
G1 X98.600 Y103.272 E2.14339
G1 X98.067 Y102.988 E2.16131
G1 X97.589 Y102.619 E2.17924
G1 X97.182 Y102.173 E2.19716
G1 X96.855 Y101.666 E2.21508
G1 X96.619 Y101.110 E2.23301
G1 X96.480 Y100.523 E2.25093
G1 X96.442 Y99.920 E2.26885
G1 X96.506 Y99.320 E2.28678
G1 X96.666 Y98.757 E2.30415
G1 X96.932 Y98.197 E2.32257
G1 X97.282 Y97.703 E2.34054
G1 X97.709 Y97.276 E2.35846
G1 X98.202 Y96.928 E2.37639
G1 X98.747 Y96.669 E2.39431
G1 X99.328 Y96.505 E2.41224
G1 X99.910 Y96.444 E2.42961 F1800.000
G1 X100.529 Y96.480 E2.44803
G1 X101.118 Y96.621 E2.46600
G1 X101.673 Y96.859 E2.48392
G1 X102.170 Y97.180 E2.50149
G1 X102.409 Y97.383 E2.51081
G1 X102.631 Y97.605 E2.52013
G1 X102.993 Y98.073 E2.53770
G1 X103.275 Y98.607 E2.55562
G1 X103.463 Y99.180 E2.57355
G1 X103.552 Y99.777 E2.59147
G1 X103.539 Y100.381 E2.60939
G1 X103.423 Y100.974 E2.62732
G1 X103.210 Y101.538 E2.64524
G1 X102.934 Y102.007 E2.66138
G1 X102.611 Y101.851 F7800.000
G1 X102.261 Y102.266 E2.67750 F1800.000
G1 X101.845 Y102.615 E2.69362
G1 X101.377 Y102.889 E2.70974
G1 X100.869 Y103.081 E2.72586
G1 X100.336 Y103.183 E2.74198
G1 X99.793 Y103.194 E2.75810
G1 X99.256 Y103.113 E2.77422
G1 X98.741 Y102.943 E2.79033
G1 X98.261 Y102.687 E2.80645
G1 X97.832 Y102.355 E2.82257
G1 X97.465 Y101.955 E2.83869
G1 X97.172 Y101.498 E2.85481
G1 X96.959 Y100.999 E2.87093
G1 X96.834 Y100.470 E2.88705
G1 X96.800 Y99.928 E2.90317
G1 X96.858 Y99.389 E2.91928
G1 X97.002 Y98.883 E2.93488
G1 X97.241 Y98.377 E2.95150
G1 X97.555 Y97.934 E2.96763
G1 X97.940 Y97.551 E2.98375
G1 X98.383 Y97.238 E2.99987
G1 X98.873 Y97.004 E3.01599
G1 X99.396 Y96.857 E3.03211
G1 X99.918 Y96.802 E3.04771 F1800.000
G1 X100.477 Y96.835 E3.06432
G1 X101.005 Y96.961 E3.08046
G1 X101.504 Y97.175 E3.09658
G1 X101.957 Y97.467 E3.11257
G1 X102.362 Y97.841 E3.12894
G1 X102.691 Y98.267 E3.14493
G1 X102.945 Y98.747 E3.16105
G1 X103.115 Y99.263 E3.17717
G1 X103.194 Y99.800 E3.19329
G1 X103.182 Y100.343 E3.20941
G1 X103.079 Y100.876 E3.22552
G1 X102.886 Y101.383 E3.24164
G1 X102.642 Y101.799 E3.25598
G1 X102.768 Y102.219 F7800.000
G1 X50.462 Y154.079 F7800.000
G1 X50.748 Y154.523 E3.27164 F1800.000
G1 X50.878 Y155.074 E3.28847
G1 X50.817 Y155.638 E3.30531
G1 X50.572 Y156.150 E3.32214
G1 X50.171 Y156.550 E3.33898
G1 X49.695 Y156.777 E3.35463
G1 X49.340 Y156.845 E3.36536
G1 X48.814 Y156.811 E3.38102
G1 X48.329 Y156.603 E3.39667
G1 X48.044 Y156.382 E3.40740
G1 X47.722 Y155.965 E3.42306
G1 X47.557 Y155.464 E3.43872
G1 X47.534 Y155.103 E3.44944
G1 X47.635 Y154.585 E3.46510
G1 X47.923 Y154.097 E3.48194
G1 X48.357 Y153.732 E3.49877
G1 X48.887 Y153.532 E3.51561
G1 X49.414 Y153.521 E3.53126 F1800.000
G1 X49.766 Y153.605 E3.54199
G1 X50.196 Y153.835 E3.55647
G1 X50.418 Y154.039 E3.56542
G1 X50.187 Y154.311 F7800.000
G1 X50.414 Y154.665 E3.57790 F1800.000
G1 X50.517 Y155.097 E3.59110
G1 X50.469 Y155.539 E3.60430
G1 X50.277 Y155.940 E3.61750
G1 X49.962 Y156.254 E3.63069
G1 X49.583 Y156.435 E3.64318
G1 X49.318 Y156.486 E3.65119
G1 X48.898 Y156.459 E3.66367
G1 X48.512 Y156.293 E3.67615
G1 X48.298 Y156.128 E3.68416
G1 X48.042 Y155.795 E3.69664
G1 X47.911 Y155.396 E3.70913
G1 X47.894 Y155.126 E3.71714
G1 X47.974 Y154.714 E3.72962
G1 X48.199 Y154.330 E3.74282
G1 X48.540 Y154.044 E3.75602
G1 X48.956 Y153.888 E3.76922
G1 X49.376 Y153.879 E3.78170 F1800.000
G1 X49.638 Y153.942 E3.78971
G1 X49.988 Y154.128 E3.80147
G1 X50.143 Y154.270 E3.80771
G1 X49.911 Y154.543 F7800.000
G1 X50.081 Y154.806 E3.81701 F1800.000
G1 X50.155 Y155.120 E3.82657
G1 X50.121 Y155.440 E3.83614
G1 X49.981 Y155.730 E3.84570
G1 X49.753 Y155.958 E3.85526
G1 X49.470 Y156.093 E3.86457
G1 X49.295 Y156.126 E3.86987
G1 X48.982 Y156.106 E3.87917
G1 X48.694 Y155.983 E3.88848
G1 X48.553 Y155.874 E3.89378
G1 X48.362 Y155.625 E3.90308
G1 X48.264 Y155.328 E3.91239
G1 X48.253 Y155.150 E3.91768
G1 X48.313 Y154.842 E3.92699
G1 X48.476 Y154.564 E3.93655
G1 X48.723 Y154.357 E3.94612
G1 X49.024 Y154.244 E3.95568
G1 X49.337 Y154.237 E3.96499 F1800.000
G1 X49.511 Y154.279 E3.97028
G1 X49.780 Y154.422 E3.97933
G1 X49.867 Y154.502 E3.98285
G1 X50.222 Y154.501 F7800.000
G1 X101.335 Y103.844 F7800.000
G1 X51.868 Y157.580 E6.15145 F1800.000
G1 X51.404 Y158.007 E6.17015
G1 X50.909 Y158.330 E6.18771
G1 X50.367 Y158.568 E6.20528
G1 X49.794 Y158.713 E6.22285
G1 X49.204 Y158.762 E6.24042
G1 X48.614 Y158.713 E6.25799
G1 X48.041 Y158.568 E6.27556
G1 X47.499 Y158.330 E6.29313
G1 X47.003 Y158.007 E6.31070
G1 X46.568 Y157.606 E6.32826
G1 X46.205 Y157.139 E6.34583
G1 X45.923 Y156.619 E6.36340
G1 X45.738 Y156.080 E6.38031
G1 X45.633 Y155.473 E6.39860
G1 X45.633 Y154.883 E6.41610
G1 X45.731 Y154.300 E6.43367
G1 X45.916 Y153.761 E6.45057
G1 X46.206 Y153.218 E6.46887
G1 X46.591 Y152.723 E6.48749
G1 X96.059 Y98.987 E8.65609
G1 X96.206 Y99.070 E8.66112
G1 X96.155 Y99.252 E8.66675
G1 X96.084 Y99.912 E8.68647
G1 X96.125 Y100.576 E8.70620
G1 X96.278 Y101.222 E8.72593
G1 X96.538 Y101.834 E8.74566
G1 X96.898 Y102.392 E8.76539
G1 X97.347 Y102.882 E8.78512
G1 X97.872 Y103.289 E8.80485
G1 X98.459 Y103.601 E8.82457
G1 X99.089 Y103.810 E8.84430
G1 X99.746 Y103.909 E8.86403
G1 X100.411 Y103.896 E8.88376
G1 X101.063 Y103.770 E8.90349
G1 X101.241 Y103.704 E8.90911
G1 X101.302 Y103.794 E8.91236
G1 X103.793 Y100.944 F7800.000
G1 X103.895 Y100.419 E8.92823 F1800.000
G1 X103.910 Y99.755 E8.94796
G1 X103.812 Y99.098 E8.96769
G1 X103.605 Y98.467 E8.98742
G1 X103.294 Y97.879 E9.00715
G1 X102.900 Y97.369 E9.02630
G1 X102.652 Y97.120 E9.03674
G1 X102.383 Y96.893 E9.04719
G1 X101.841 Y96.542 E9.06633
G1 X101.231 Y96.281 E9.08606
G1 X100.582 Y96.126 E9.10587
G1 X99.902 Y96.085 E9.12609
G1 X99.260 Y96.153 E9.14524
G1 X98.746 Y96.298 E9.16112
G1 X98.661 Y96.160 E9.16593
G1 X146.855 Y43.807 E11.27870
G1 X147.003 Y43.890 E11.28372
G1 X146.951 Y44.072 E11.28935
G1 X146.880 Y44.733 E11.30908
G1 X146.921 Y45.396 E11.32881
G1 X147.074 Y46.043 E11.34853
G1 X147.334 Y46.654 E11.36826
G1 X147.694 Y47.213 E11.38799
G1 X148.143 Y47.703 E11.40772
G1 X148.668 Y48.110 E11.42745
G1 X149.255 Y48.422 E11.44718
G1 X149.880 Y48.629 E11.46674
G1 X150.503 Y48.731 E11.48547
G1 X151.207 Y48.717 E11.50638
G1 X151.859 Y48.591 E11.52610
G1 X152.037 Y48.524 E11.53173
G1 X152.131 Y48.665 E11.53676
G1 X103.937 Y101.017 E13.64953
G1 X103.846 Y100.971 E13.65255
G1 X148.386 Y47.439 F7800.000
G1 X147.978 Y46.994 E13.67048 F1800.000
G1 X147.651 Y46.487 E13.68840
G1 X147.415 Y45.931 E13.70633
G1 X147.276 Y45.344 E13.72425
G1 X147.238 Y44.741 E13.74217
G1 X147.302 Y44.141 E13.76010
G1 X147.468 Y43.560 E13.77802
G1 X147.728 Y43.016 E13.79594
G1 X148.078 Y42.523 E13.81387
G1 X148.505 Y42.097 E13.83179
G1 X148.998 Y41.749 E13.84971
G1 X149.543 Y41.489 E13.86764
G1 X150.124 Y41.326 E13.88556
G1 X150.706 Y41.264 E13.90294 F1800.000
G1 X151.325 Y41.301 E13.92136
G1 X151.914 Y41.442 E13.93933
G1 X152.469 Y41.679 E13.95725
G1 X152.976 Y42.007 E13.97517
G1 X153.420 Y42.416 E13.99310
G1 X153.789 Y42.894 E14.01102
G1 X154.071 Y43.427 E14.02894
G1 X154.254 Y43.983 E14.04632
G1 X154.348 Y44.597 E14.06474
G1 X154.335 Y45.202 E14.08271
G1 X154.219 Y45.794 E14.10063
G1 X154.006 Y46.359 E14.11855
G1 X153.700 Y46.879 E14.13648
G1 X153.310 Y47.340 E14.15440
G1 X152.848 Y47.729 E14.17233
G1 X152.327 Y48.034 E14.19025
G1 X151.762 Y48.246 E14.20817
G1 X151.169 Y48.360 E14.22610
G1 X150.528 Y48.373 E14.24513
G1 X149.965 Y48.281 E14.26206
G1 X149.396 Y48.093 E14.27988
G1 X148.863 Y47.809 E14.29781
G1 X148.433 Y47.476 E14.31395
G1 X148.628 Y47.176 F7800.000
G1 X148.261 Y46.775 E14.33007 F1800.000
G1 X147.968 Y46.319 E14.34619
G1 X147.755 Y45.819 E14.36230
G1 X147.630 Y45.291 E14.37842
G1 X147.596 Y44.749 E14.39454
G1 X147.654 Y44.209 E14.41066
G1 X147.803 Y43.687 E14.42678
G1 X148.037 Y43.198 E14.44290
G1 X148.351 Y42.755 E14.45902
G1 X148.736 Y42.371 E14.47514
G1 X149.179 Y42.058 E14.49126
G1 X149.669 Y41.825 E14.50737
G1 X150.192 Y41.677 E14.52349
G1 X150.714 Y41.622 E14.53909 F1800.000
G1 X151.273 Y41.656 E14.55571
G1 X151.801 Y41.782 E14.57184
G1 X152.301 Y41.996 E14.58796
G1 X152.756 Y42.290 E14.60408
G1 X153.156 Y42.658 E14.62020
G1 X153.487 Y43.088 E14.63632
G1 X153.741 Y43.568 E14.65244
G1 X153.905 Y44.067 E14.66804
G1 X153.991 Y44.620 E14.68465
G1 X153.978 Y45.163 E14.70079
G1 X153.875 Y45.696 E14.71690
G1 X153.682 Y46.204 E14.73302
G1 X153.407 Y46.672 E14.74914
G1 X153.057 Y47.086 E14.76526
G1 X152.641 Y47.436 E14.78138
G1 X152.173 Y47.710 E14.79750
G1 X151.665 Y47.901 E14.81362
G1 X151.132 Y48.004 E14.82974
G1 X150.554 Y48.015 E14.84690
G1 X150.051 Y47.933 E14.86203
G1 X149.537 Y47.763 E14.87811
G1 X149.057 Y47.508 E14.89423
G1 X148.676 Y47.212 E14.90856
G1 X148.243 Y47.284 F7800.000
G1 X151.529 Y49.846 F7800.000
G1 X52.120 Y157.833 E19.26654 F1800.000
G1 X51.625 Y158.289 E19.28655
G1 X51.080 Y158.645 E19.30588
G1 X50.484 Y158.907 E19.32521
G1 X49.853 Y159.067 E19.34453
G1 X49.204 Y159.120 E19.36386
G1 X48.555 Y159.067 E19.38318
G1 X47.924 Y158.907 E19.40251
G1 X47.328 Y158.645 E19.42183
G1 X46.783 Y158.289 E19.44116
G1 X46.304 Y157.849 E19.46049
G1 X45.905 Y157.335 E19.47981
G1 X45.595 Y156.762 E19.49914
G1 X45.391 Y156.169 E19.51777
G1 X45.276 Y155.503 E19.53782
G1 X45.276 Y154.854 E19.55711
G1 X45.384 Y154.212 E19.57643
G1 X45.587 Y153.618 E19.59507
G1 X45.906 Y153.023 E19.61512
G1 X46.319 Y152.492 E19.63509
G1 X147.880 Y42.167 E24.08741
G1 X148.375 Y41.711 E24.10742
G1 X148.920 Y41.355 E24.12675
G1 X149.516 Y41.093 E24.14608
G1 X150.147 Y40.933 E24.16540
G1 X150.796 Y40.880 E24.18473
G1 X151.422 Y40.931 E24.20336
G1 X152.077 Y41.094 E24.22341 F1800.000
G1 X152.672 Y41.355 E24.24270
G1 X153.217 Y41.711 E24.26202
G1 X153.696 Y42.151 E24.28135
G1 X154.095 Y42.665 E24.30067
G1 X154.405 Y43.238 E24.32000
G1 X154.616 Y43.853 E24.33932
G1 X154.724 Y44.495 E24.35865
G1 X154.724 Y45.146 E24.37798
G1 X154.620 Y45.765 E24.39661
G1 X154.404 Y46.405 E24.41666
G1 X154.095 Y46.976 E24.43594
G1 X153.681 Y47.508 E24.45596
G1 X151.570 Y49.802 E24.54852
G1 X151.792 Y50.088 F7800.000
G1 X52.373 Y158.086 E28.90694 F1800.000
G1 X51.845 Y158.572 E28.92827
G1 X51.250 Y158.960 E28.94935
G1 X50.600 Y159.246 E28.97043
G1 X49.912 Y159.420 E28.99152
G1 X49.204 Y159.479 E29.01260
G1 X48.496 Y159.420 E29.03368
G1 X47.808 Y159.246 E29.05477
G1 X47.158 Y158.960 E29.07585
G1 X46.563 Y158.572 E29.09693
G1 X46.041 Y158.091 E29.11801
G1 X45.605 Y157.531 E29.13910
G1 X45.267 Y156.906 E29.16018
G1 X45.044 Y156.258 E29.18054
G1 X44.919 Y155.534 E29.20235
G1 X44.919 Y154.824 E29.22342
G1 X45.036 Y154.124 E29.24450
G1 X45.259 Y153.475 E29.26487
G1 X45.605 Y152.827 E29.28667
G1 X46.046 Y152.261 E29.30799
G1 X147.627 Y41.914 E33.76119
G1 X148.155 Y41.428 E33.78252
G1 X148.750 Y41.040 E33.80360
G1 X149.400 Y40.754 E33.82469
G1 X150.088 Y40.580 E33.84577
G1 X150.796 Y40.521 E33.86685
G1 X151.480 Y40.578 E33.88721
G1 X152.193 Y40.754 E33.90902 F1800.000
G1 X152.842 Y41.040 E33.93009
G1 X153.437 Y41.428 E33.95117
G1 X153.959 Y41.909 E33.97226
G1 X154.395 Y42.469 E33.99334
G1 X154.733 Y43.094 E34.01442
G1 X154.964 Y43.765 E34.03550
G1 X155.081 Y44.466 E34.05659
G1 X155.081 Y45.176 E34.07767
G1 X154.968 Y45.852 E34.09803
G1 X154.733 Y46.548 E34.11984
G1 X154.395 Y47.172 E34.14091
G1 X153.954 Y47.739 E34.16224
G1 X151.833 Y50.044 E34.25524
G1 X151.402 Y50.000 F7800.000
G1 X151.515 Y49.073 F7800.000
G1 X151.332 Y48.891 E34.26295 F1800.000
G1 X151.272 Y49.338 E34.27640
G1 X150.864 Y48.930 E34.29360
G1 X150.358 Y48.931 E34.30869
G1 X151.029 Y49.602 E34.33698
G1 X150.786 Y49.866 E34.34768
G1 X149.752 Y48.832 E34.39128
G1 X148.968 Y48.555 F7800.000
G1 X150.543 Y50.130 E34.45769 F1800.000
G1 X150.300 Y50.394 E34.46840
G1 X145.474 Y45.568 E34.67192
G1 X145.231 Y45.832 E34.68263
G1 X150.056 Y50.658 E34.88615
G1 X149.813 Y50.922 E34.89685
G1 X144.988 Y46.096 E35.10038
G1 X144.744 Y46.361 E35.11108
G1 X149.570 Y51.186 E35.31460
G1 X149.327 Y51.450 E35.32531
G1 X144.501 Y46.625 E35.52883
G1 X144.258 Y46.889 E35.53954
G1 X149.084 Y51.714 E35.74306
G1 X148.841 Y51.979 E35.75376
G1 X144.015 Y47.153 E35.95729
G1 X143.772 Y47.417 E35.96799
G1 X148.598 Y52.243 E36.17151
G1 X148.355 Y52.507 E36.18222
G1 X143.529 Y47.681 E36.38574
G1 X143.286 Y47.945 E36.39645
G1 X148.111 Y52.771 E36.59997
G1 X147.868 Y53.035 E36.61067
