; generated by Slic3r 1.2.9 on 2016-05-01 at 18:28:49

; external perimeters extrusion width = 0.40mm
; perimeters extrusion width = 0.67mm
; infill extrusion width = 0.67mm
; solid infill extrusion width = 0.67mm
; top infill extrusion width = 0.67mm

M107
M190 S55 ; set bed temperature
M104 S200 ; set temperature
G28 ; home all axes
G1 Z5 F5000 ; lift nozzle

M109 S200 ; wait for temperature to be reached
G21 ; set units to millimeters
G90 ; use absolute coordinates
M82 ; use absolute distances for extrusion
G92 E0
G1 Z0.200 F7800.000
G1 E-2.00000 F2400.00000
G92 E0
G1 X106.784 Y69.766 F7800.000
G1 E2.00000 F2400.00000
G1 X111.421 Y62.668 E2.25173 F1800.000
G1 X111.727 Y62.240 E2.26733
G1 X112.183 Y61.654 E2.28940
G1 X112.894 Y60.881 E2.32057
G1 X113.441 Y60.378 E2.34264
G1 X114.270 Y59.733 E2.37381
G1 X114.892 Y59.327 E2.39588
G1 X115.815 Y58.827 E2.42705
G1 X116.496 Y58.528 E2.44913
G1 X117.489 Y58.188 E2.48029
G1 X118.185 Y58.011 E2.50162
G1 X119.245 Y57.832 E2.53353
G1 X119.986 Y57.771 E2.55560
G1 X121.036 Y57.771 E2.58677
G1 X121.777 Y57.832 E2.60885 F1800.000
G1 X122.812 Y58.005 E2.64001
G1 X123.532 Y58.188 E2.66208
G1 X124.525 Y58.528 E2.69325
G1 X125.206 Y58.827 E2.71532
G1 X126.129 Y59.327 E2.74649
G1 X126.751 Y59.733 E2.76856
G1 X127.580 Y60.378 E2.79973
G1 X128.127 Y60.881 E2.82180
G1 X128.838 Y61.654 E2.85297
G1 X129.295 Y62.240 E2.87504
G1 X129.869 Y63.119 E2.90621
G1 X130.222 Y63.773 E2.92828
G1 X130.644 Y64.735 E2.95946
G1 X130.886 Y65.437 E2.98152
G1 X131.143 Y66.455 E3.01269
G1 X131.266 Y67.189 E3.03477
G1 X131.352 Y68.235 E3.06594
G1 X131.352 Y68.978 E3.08800
G1 X131.266 Y70.024 E3.11918
G1 X131.143 Y70.757 E3.14124
G1 X130.885 Y71.775 E3.17242
G1 X130.644 Y72.478 E3.19449
G1 X130.222 Y73.440 E3.22566
G1 X129.869 Y74.093 E3.24773
G1 X129.600 Y74.545 E3.26332
G1 X88.579 Y137.332 E5.49017
G1 X88.273 Y137.760 E5.50577
G1 X87.817 Y138.346 E5.52784
G1 X87.106 Y139.119 E5.55901
G1 X86.559 Y139.622 E5.58109
G1 X85.730 Y140.267 E5.61225
G1 X85.108 Y140.673 E5.63432
G1 X84.185 Y141.173 E5.66550
G1 X83.504 Y141.472 E5.68756
G1 X82.511 Y141.812 E5.71873
G1 X81.790 Y141.995 E5.74081
G1 X80.755 Y142.168 E5.77198
G1 X80.014 Y142.229 E5.79404
G1 X78.965 Y142.229 E5.82521
G1 X78.223 Y142.168 E5.84730
G1 X77.188 Y141.995 E5.87846
G1 X76.468 Y141.812 E5.90052
G1 X75.475 Y141.472 E5.93169
G1 X74.794 Y141.173 E5.95377
G1 X73.871 Y140.673 E5.98494
G1 X73.248 Y140.267 E6.00702
G1 X72.420 Y139.622 E6.03818
G1 X71.873 Y139.119 E6.06025
G1 X71.162 Y138.346 E6.09142
G1 X70.705 Y137.759 E6.11350
G1 X70.131 Y136.881 E6.14466
G1 X69.777 Y136.226 E6.16675
G1 X69.356 Y135.266 E6.19790
G1 X69.123 Y134.586 E6.21923
G1 X68.857 Y133.545 E6.25114
G1 X68.734 Y132.811 E6.27321
G1 X68.648 Y131.765 E6.30438
G1 X68.648 Y131.022 E6.32645
G1 X68.734 Y129.976 E6.35762
G1 X68.857 Y129.243 E6.37969
G1 X69.115 Y128.225 E6.41086
G1 X69.356 Y127.522 E6.43293
G1 X69.778 Y126.560 E6.46410
G1 X70.131 Y125.907 E6.48617
G1 X70.400 Y125.455 E6.50177
G1 X106.751 Y69.816 E8.47511
G1 E6.47511 F2400.00000
G92 E0
G1 X83.042 Y131.224 F7800.000
G1 E2.00000 F2400.00000
G1 X83.026 Y131.791 E2.01684 F1800.000
G1 X82.908 Y132.383 E2.03477
G1 X82.692 Y132.946 E2.05269
G1 X82.384 Y133.465 E2.07061
G1 X82.004 Y133.910 E2.08799
G1 X81.530 Y134.310 E2.10641
G1 X81.006 Y134.614 E2.12438
G1 X80.440 Y134.824 E2.14230
G1 X79.847 Y134.935 E2.16022
G1 X79.243 Y134.944 E2.17815
G1 X78.647 Y134.852 E2.19607
G1 X78.055 Y134.653 E2.21461
G1 X77.541 Y134.372 E2.23198
G1 X77.067 Y134.001 E2.24985
G1 X76.661 Y133.555 E2.26777
G1 X76.337 Y133.046 E2.28570
G1 X76.103 Y132.489 E2.30362
G1 X75.967 Y131.901 E2.32154
G1 X75.932 Y131.298 E2.33947
G1 X75.999 Y130.698 E2.35739
G1 X76.167 Y130.119 E2.37531
G1 X76.430 Y129.575 E2.39324
G1 X76.781 Y129.084 E2.41116
G1 X77.211 Y128.660 E2.42909
G1 X77.705 Y128.314 E2.44701
G1 X78.251 Y128.057 E2.46493
G1 X78.833 Y127.896 E2.48286
G1 X79.415 Y127.837 E2.50023 F1800.000
G1 X80.035 Y127.877 E2.51865
G1 X80.622 Y128.020 E2.53662
G1 X81.176 Y128.260 E2.55454
G1 X81.682 Y128.590 E2.57247
G1 X82.124 Y129.001 E2.59039
G1 X82.491 Y129.481 E2.60831
G1 X82.771 Y130.015 E2.62624
G1 X82.956 Y130.590 E2.64416
G1 X83.039 Y131.164 E2.66139
G1 X82.685 Y131.214 F7800.000
G1 X82.670 Y131.751 E2.67732 F1800.000
G1 X82.564 Y132.283 E2.69344
G1 X82.370 Y132.790 E2.70956
G1 X82.092 Y133.257 E2.72568
G1 X81.751 Y133.656 E2.74128
G1 X81.323 Y134.017 E2.75790
G1 X80.853 Y134.289 E2.77403
G1 X80.344 Y134.478 E2.79015
G1 X79.811 Y134.578 E2.80627
G1 X79.268 Y134.587 E2.82239
G1 X78.731 Y134.503 E2.83851
G1 X78.198 Y134.324 E2.85521
G1 X77.738 Y134.073 E2.87077
G1 X77.311 Y133.739 E2.88687
G1 X76.946 Y133.337 E2.90299
G1 X76.654 Y132.879 E2.91911
G1 X76.444 Y132.379 E2.93523
G1 X76.321 Y131.850 E2.95135
G1 X76.290 Y131.308 E2.96747
G1 X76.350 Y130.768 E2.98358
G1 X76.501 Y130.247 E2.99970
G1 X76.738 Y129.758 E3.01582
G1 X77.054 Y129.317 E3.03194
G1 X77.440 Y128.935 E3.04806
G1 X77.885 Y128.624 E3.06418
G1 X78.376 Y128.393 E3.08030
G1 X78.899 Y128.248 E3.09642
G1 X79.422 Y128.195 E3.11201 F1800.000
G1 X79.980 Y128.231 E3.12863
G1 X80.508 Y128.360 E3.14477
G1 X81.007 Y128.575 E3.16088
G1 X81.461 Y128.872 E3.17700
G1 X81.859 Y129.242 E3.19312
G1 X82.188 Y129.673 E3.20924
G1 X82.440 Y130.154 E3.22536
G1 X82.607 Y130.671 E3.24148
G1 X82.677 Y131.154 E3.25600
G1 X83.037 Y131.404 F7800.000
G1 X83.386 Y131.701 F7800.000
G1 X83.400 Y131.166 E3.27187 F1800.000
G1 X83.306 Y130.509 E3.29160
G1 X83.101 Y129.876 E3.31133
G1 X82.793 Y129.288 E3.33106
G1 X82.389 Y128.760 E3.35078
G1 X81.903 Y128.308 E3.37051
G1 X81.346 Y127.944 E3.39024
G1 X80.737 Y127.680 E3.40997
G1 X80.089 Y127.522 E3.42977
G1 X79.409 Y127.479 E3.45000
G1 X78.767 Y127.543 E3.46915
G1 X78.127 Y127.721 E3.48888
G1 X77.643 Y127.949 E3.50475
G1 X77.537 Y127.827 E3.50956
G1 X116.456 Y68.256 E5.62233
G1 X116.616 Y68.313 E5.62736
G1 X116.595 Y68.501 E5.63298
G1 X116.633 Y69.165 E5.65271
G1 X116.783 Y69.812 E5.67244
G1 X117.041 Y70.424 E5.69217
G1 X117.399 Y70.987 E5.71197
G1 X117.860 Y71.489 E5.73220
G1 X118.368 Y71.886 E5.75135
G1 X118.953 Y72.201 E5.77108
G1 X119.583 Y72.412 E5.79080
G1 X120.239 Y72.514 E5.81053
G1 X120.904 Y72.504 E5.83026
G1 X121.557 Y72.381 E5.84999
G1 X122.180 Y72.150 E5.86972
G1 X122.344 Y72.055 E5.87534
G1 X122.460 Y72.178 E5.88037
G1 X83.541 Y131.749 E7.99314
G1 X83.443 Y131.719 E7.99617
G1 X118.564 Y71.586 F7800.000
G1 X118.103 Y71.225 E8.01354 F1800.000
G1 X117.683 Y70.768 E8.03196
G1 X117.358 Y70.258 E8.04993
G1 X117.124 Y69.702 E8.06786
G1 X116.988 Y69.113 E8.08578
G1 X116.953 Y68.511 E8.10370
G1 X117.018 Y67.929 E8.12108
G1 X117.187 Y67.332 E8.13950
G1 X117.451 Y66.788 E8.15747
G1 X117.802 Y66.297 E8.17539
G1 X118.232 Y65.872 E8.19331
G1 X118.726 Y65.527 E8.21124
G1 X119.273 Y65.269 E8.22916
G1 X119.854 Y65.108 E8.24708
G1 X120.436 Y65.049 E8.26446 F1800.000
G1 X121.056 Y65.089 E8.28288
G1 X121.644 Y65.232 E8.30085
G1 X122.197 Y65.472 E8.31877
G1 X122.703 Y65.803 E8.33669
G1 X123.145 Y66.213 E8.35462
G1 X123.512 Y66.693 E8.37254
G1 X123.792 Y67.228 E8.39047
G1 X123.978 Y67.802 E8.40839
G1 X124.064 Y68.400 E8.42631
G1 X124.047 Y69.003 E8.44424
G1 X123.930 Y69.595 E8.46216
G1 X123.713 Y70.159 E8.48008
G1 X123.405 Y70.678 E8.49801
G1 X123.013 Y71.137 E8.51593
G1 X122.549 Y71.523 E8.53385
G1 X122.027 Y71.826 E8.55178
G1 X121.461 Y72.036 E8.56970
G1 X120.868 Y72.147 E8.58762
G1 X120.264 Y72.157 E8.60555
G1 X119.668 Y72.064 E8.62347
G1 X119.095 Y71.872 E8.64140
G1 X118.617 Y71.614 E8.65754
G1 X118.760 Y71.286 F7800.000
G1 X118.346 Y70.962 E8.67314 F1800.000
G1 X117.968 Y70.550 E8.68975
G1 X117.675 Y70.092 E8.70589
G1 X117.465 Y69.591 E8.72201
G1 X117.343 Y69.062 E8.73813
G1 X117.311 Y68.520 E8.75424
G1 X117.370 Y67.998 E8.76984
G1 X117.522 Y67.460 E8.78646
G1 X117.759 Y66.971 E8.80259
G1 X118.075 Y66.529 E8.81871
G1 X118.461 Y66.148 E8.83483
G1 X118.906 Y65.837 E8.85095
G1 X119.397 Y65.605 E8.86707
G1 X119.920 Y65.460 E8.88319
G1 X120.443 Y65.408 E8.89879 F1800.000
G1 X121.002 Y65.443 E8.91540
G1 X121.530 Y65.572 E8.93154
G1 X122.028 Y65.788 E8.94766
G1 X122.482 Y66.085 E8.96377
G1 X122.880 Y66.454 E8.97989
G1 X123.209 Y66.886 E8.99601
G1 X123.461 Y67.367 E9.01213
G1 X123.629 Y67.883 E9.02825
G1 X123.706 Y68.420 E9.04437
G1 X123.691 Y68.963 E9.06049
G1 X123.585 Y69.496 E9.07661
G1 X123.391 Y70.002 E9.09272
G1 X123.113 Y70.469 E9.10884
G1 X122.761 Y70.882 E9.12496
G1 X122.344 Y71.230 E9.14108
G1 X121.874 Y71.502 E9.15720
G1 X121.365 Y71.691 E9.17332
G1 X120.832 Y71.791 E9.18944
G1 X120.289 Y71.799 E9.20556
G1 X119.753 Y71.716 E9.22168
G1 X119.238 Y71.543 E9.23779
G1 X118.813 Y71.314 E9.25213
G1 X118.398 Y71.456 F7800.000
G1 X122.061 Y73.442 F7800.000
G1 X82.803 Y133.531 E11.38326 F1800.000
G1 X82.389 Y134.063 E11.40327
G1 X81.910 Y134.504 E11.42260
G1 X81.365 Y134.860 E11.44193
G1 X80.769 Y135.121 E11.46125
G1 X80.161 Y135.275 E11.47989
G1 X79.488 Y135.335 E11.49994
G1 X78.841 Y135.281 E11.51922
G1 X78.210 Y135.121 E11.53854
G1 X77.614 Y134.860 E11.55787
G1 X77.069 Y134.504 E11.57720
G1 X76.590 Y134.063 E11.59652
G1 X76.204 Y133.568 E11.61516
G1 X75.880 Y132.975 E11.63521
G1 X75.669 Y132.361 E11.65449
G1 X75.562 Y131.719 E11.67382
G1 X75.562 Y131.068 E11.69314
G1 X75.669 Y130.426 E11.71247
G1 X75.880 Y129.811 E11.73179
G1 X76.201 Y129.218 E11.75181
G1 X117.197 Y66.469 E13.97728
G1 X117.611 Y65.937 E13.99730
G1 X118.073 Y65.512 E14.01593
G1 X118.636 Y65.140 E14.03598
G1 X119.231 Y64.879 E14.05526
G1 X119.862 Y64.719 E14.07459
G1 X120.511 Y64.665 E14.09392
G1 X121.136 Y64.717 E14.11255
G1 X121.792 Y64.879 E14.13260 F1800.000
G1 X122.386 Y65.140 E14.15188
G1 X122.931 Y65.496 E14.17121
G1 X123.410 Y65.937 E14.19054
G1 X123.810 Y66.451 E14.20986
G1 X124.120 Y67.023 E14.22919
G1 X124.331 Y67.639 E14.24851
G1 X124.434 Y68.258 E14.26715
G1 X124.438 Y68.933 E14.28720
G1 X124.331 Y69.574 E14.30648
G1 X124.120 Y70.189 E14.32581
G1 X123.799 Y70.782 E14.34582
G1 X122.094 Y73.392 E14.43839
G1 X122.360 Y73.638 F7800.000
G1 X83.094 Y133.739 E16.56995 F1800.000
G1 X82.653 Y134.306 E16.59128
G1 X82.130 Y134.787 E16.61237
G1 X81.536 Y135.175 E16.63345
G1 X80.885 Y135.460 E16.65453
G1 X80.221 Y135.628 E16.67490
G1 X79.489 Y135.693 E16.69670
G1 X78.782 Y135.634 E16.71777
G1 X78.093 Y135.460 E16.73885
G1 X77.443 Y135.175 E16.75994
G1 X76.849 Y134.787 E16.78102
G1 X76.326 Y134.306 E16.80210
G1 X75.905 Y133.764 E16.82247
G1 X75.552 Y133.120 E16.84428
G1 X75.322 Y132.449 E16.86534
G1 X75.205 Y131.749 E16.88642
G1 X75.205 Y131.039 E16.90751
G1 X75.322 Y130.338 E16.92859
G1 X75.552 Y129.667 E16.94967
G1 X75.894 Y129.035 E16.97100
G1 X116.906 Y66.261 E19.19736
G1 X117.347 Y65.694 E19.21869
G1 X117.852 Y65.230 E19.23905
G1 X118.465 Y64.825 E19.26086
G1 X119.115 Y64.540 E19.28193
G1 X119.803 Y64.366 E19.30301
G1 X120.511 Y64.307 E19.32409
G1 X121.194 Y64.364 E19.34446
G1 X121.907 Y64.540 E19.36626 F1800.000
G1 X122.557 Y64.825 E19.38733
G1 X123.151 Y65.213 E19.40841
G1 X123.674 Y65.694 E19.42950
G1 X124.110 Y66.255 E19.45058
G1 X124.448 Y66.879 E19.47166
G1 X124.678 Y67.551 E19.49275
G1 X124.791 Y68.227 E19.51311
G1 X124.795 Y68.962 E19.53492
G1 X124.678 Y69.662 E19.55598
G1 X124.448 Y70.333 E19.57707
G1 X124.106 Y70.965 E19.59840
G1 X122.393 Y73.587 E19.69140
G1 X121.960 Y73.616 F7800.000
G1 X121.906 Y72.699 F7800.000
G1 X121.725 Y72.518 E19.69906 F1800.000
G1 X121.324 Y72.624 E19.71144
G1 X121.706 Y73.006 E19.72756
G1 X121.506 Y73.313 E19.73849
G1 X120.897 Y72.704 E19.76418
G1 X120.404 Y72.718 E19.77888
G1 X121.305 Y73.620 E19.81689
G1 X121.105 Y73.926 E19.82782
G1 X119.856 Y72.678 E19.88050
G1 X119.205 Y72.534 E19.90037
G1 X120.904 Y74.233 E19.97203
G1 X120.704 Y74.540 E19.98297
G1 X118.300 Y72.136 E20.08436
G1 X116.984 Y70.821 F7800.000
G1 X115.780 Y69.617 E20.13514 F1800.000
G1 X115.981 Y69.310 E20.14608
G1 X116.571 Y69.900 E20.17095
G1 X116.425 Y69.247 E20.19090
G1 X116.183 Y69.005 E20.20113
G1 X115.580 Y69.924 F7800.000
G1 X120.503 Y74.847 E20.40880 F1800.000
G1 X120.303 Y75.154 E20.41973
G1 X115.380 Y70.230 E20.62739
G1 X115.179 Y70.537 E20.63833
G1 X120.102 Y75.460 E20.84599
G1 X119.902 Y75.767 E20.85693
G1 X114.979 Y70.844 E21.06459
G1 X114.778 Y71.151 E21.07553
G1 X119.701 Y76.074 E21.28319
G1 X119.501 Y76.381 E21.29412
G1 X114.578 Y71.458 E21.50179
G1 X114.377 Y71.765 E21.51272
G1 X119.301 Y76.688 E21.72039
G1 X119.100 Y76.995 E21.73132
G1 X114.177 Y72.071 E21.93899
G1 X113.976 Y72.378 E21.94992
G1 X118.900 Y77.301 E22.15759
G1 X118.699 Y77.608 E22.16852
G1 X113.776 Y72.685 E22.37619
G1 X113.575 Y72.992 E22.38712
G1 X118.499 Y77.915 E22.59479
G1 X118.298 Y78.222 E22.60572
G1 X113.375 Y73.299 E22.81339
G1 X113.175 Y73.605 E22.82432
G1 X118.098 Y78.529 E23.03199
G1 X117.897 Y78.836 E23.04292
G1 X112.974 Y73.912 E23.25059
G1 X112.774 Y74.219 E23.26152
G1 X117.697 Y79.142 E23.46919
G1 X117.496 Y79.449 E23.48012
G1 X112.573 Y74.526 E23.68779
G1 X112.373 Y74.833 E23.69872
G1 X117.296 Y79.756 E23.90639
G1 X117.095 Y80.063 E23.91732
G1 X112.172 Y75.140 E24.12499
G1 X111.972 Y75.446 E24.13592
G1 X116.895 Y80.370 E24.34359
G1 X116.695 Y80.677 E24.35452
G1 X111.771 Y75.753 E24.56219
G1 X111.571 Y76.060 E24.57312
G1 X116.494 Y80.983 E24.78079
G1 X116.294 Y81.290 E24.79172
G1 X111.370 Y76.367 E24.99939
G1 X111.170 Y76.674 E25.01032
G1 X116.093 Y81.597 E25.21798
G1 X115.893 Y81.904 E25.22892
G1 X110.969 Y76.981 E25.43658
G1 X110.769 Y77.287 E25.44752
G1 X115.692 Y82.211 E25.65518
G1 X115.492 Y82.517 E25.66612
G1 X110.569 Y77.594 E25.87378
G1 X110.368 Y77.901 E25.88471
G1 X115.291 Y82.824 E26.09238
G1 X115.091 Y83.131 E26.10331
G1 X110.168 Y78.208 E26.31098
G1 X109.967 Y78.515 E26.32191
G1 X114.890 Y83.438 E26.52958
G1 X114.690 Y83.745 E26.54051
G1 X109.767 Y78.821 E26.74818
G1 X109.566 Y79.128 E26.75911
G1 X114.490 Y84.052 E26.96678
G1 X114.289 Y84.358 E26.97771
G1 X109.366 Y79.435 E27.18538
G1 X109.165 Y79.742 E27.19631
G1 X114.089 Y84.665 E27.40398
G1 X113.888 Y84.972 E27.41491
G1 X108.965 Y80.049 E27.62258
G1 X108.764 Y80.356 E27.63351
G1 X113.688 Y85.279 E27.84118
G1 X113.487 Y85.586 E27.85211
G1 X108.564 Y80.662 E28.05978
G1 X108.363 Y80.969 E28.07071
G1 X113.287 Y85.893 E28.27838
G1 X113.086 Y86.199 E28.28931
G1 X108.163 Y81.276 E28.49698
G1 X107.963 Y81.583 E28.50791
G1 X112.886 Y86.506 E28.71558
G1 X112.685 Y86.813 E28.72651
G1 X107.762 Y81.890 E28.93418
G1 X107.562 Y82.197 E28.94511
G1 X112.485 Y87.120 E29.15278
G1 X112.284 Y87.427 E29.16371
G1 X107.361 Y82.503 E29.37138
G1 X107.161 Y82.810 E29.38231
G1 X112.084 Y87.733 E29.58998
G1 X111.884 Y88.040 E29.60091
G1 X106.960 Y83.117 E29.80857
G1 X106.760 Y83.424 E29.81951
G1 X111.683 Y88.347 E30.02717
G1 X111.483 Y88.654 E30.03811
G1 X106.559 Y83.731 E30.24577
G1 X106.359 Y84.038 E30.25671
G1 X111.282 Y88.961 E30.46437
G1 X111.082 Y89.268 E30.47530
G1 X106.158 Y84.344 E30.68297
G1 X105.958 Y84.651 E30.69390
G1 X110.881 Y89.574 E30.90157
G1 X110.681 Y89.881 E30.91250
G1 X105.758 Y84.958 E31.12017
G1 X105.557 Y85.265 E31.13110
G1 X110.480 Y90.188 E31.33877
G1 X110.280 Y90.495 E31.34970
G1 X105.357 Y85.572 E31.55737
G1 X105.156 Y85.878 E31.56830
G1 X110.079 Y90.802 E31.77597
G1 X109.879 Y91.109 E31.78690
G1 X104.956 Y86.185 E31.99457
G1 X104.755 Y86.492 E32.00550
G1 X109.678 Y91.415 E32.21317
G1 X109.478 Y91.722 E32.22410
G1 X104.555 Y86.799 E32.43177
G1 X104.354 Y87.106 E32.44270
G1 X109.278 Y92.029 E32.65037
G1 X109.077 Y92.336 E32.66130
G1 X104.154 Y87.413 E32.86897
G1 X103.953 Y87.719 E32.87990
G1 X108.877 Y92.643 E33.08757
G1 X108.676 Y92.950 E33.09850
G1 X103.753 Y88.026 E33.30617
G1 X103.552 Y88.333 E33.31710
